( drill dog holes )
( File created: Sunday April 12 2020 - 09:55 AM)
( for UCCNC 2017 Screenset from Vectric )
( Material Size)
( X= 51.000, Y= 98.750 ,Z= 1.500)
(.)
(The entire design here is predicated on )
(using the actual machine origin as 0,0)
(The spoilboard top is assumed to be 2 layers)
(of 3/4 MDF.)
(Toolpaths used in this file:)
(drill dog holes)
(Tools used in this file: )
(53 = 0053 - 0750 bit)
N140G00G20G17G90G49
N150T53M06
N160 (0053 - 0750 bit)
N170S16000M03
N180(Toolpath:- drill dog holes)
N190()
N200X0.0000Y0.0000F150.0
N210G00X4.7500Y5.1560Z2.0000
N220G00X4.7500Y5.1560Z0.2000
N230G1X4.7500Y5.1560Z-0.1813F120.0
N240G00X4.7500Y5.1560Z0.2000
N250G1X4.7500Y5.1560Z-0.3625F120.0
N260G00X4.7500Y5.1560Z0.2000
N270G1X4.7500Y5.1560Z-0.5438F120.0
N280G00X4.7500Y5.1560Z0.2000
N290G1X4.7500Y5.1560Z-0.7250F120.0
N300G00X4.7500Y5.1560Z0.2000
N310G1X4.7500Y5.1560Z-0.9063F120.0
N320G00X4.7500Y5.1560Z0.2000
N330G1X4.7500Y5.1560Z-1.0875F120.0
N340G00X4.7500Y5.1560Z0.2000
N350G1X4.7500Y5.1560Z-1.2688F120.0
N360G00X4.7500Y5.1560Z0.2000
N370G1X4.7500Y5.1560Z-1.4500F120.0
N380G00X4.7500Y5.1560Z2.0000
N390G00X4.7500Y11.1560Z2.0000
N400G00X4.7500Y11.1560Z0.2000
N410G1X4.7500Y11.1560Z-0.1813F120.0
N420G00X4.7500Y11.1560Z0.2000
N430G1X4.7500Y11.1560Z-0.3625F120.0
N440G00X4.7500Y11.1560Z0.2000
N450G1X4.7500Y11.1560Z-0.5438F120.0
N460G00X4.7500Y11.1560Z0.2000
N470G1X4.7500Y11.1560Z-0.7250F120.0
N480G00X4.7500Y11.1560Z0.2000
N490G1X4.7500Y11.1560Z-0.9063F120.0
N500G00X4.7500Y11.1560Z0.2000
N510G1X4.7500Y11.1560Z-1.0875F120.0
N520G00X4.7500Y11.1560Z0.2000
N530G1X4.7500Y11.1560Z-1.2688F120.0
N540G00X4.7500Y11.1560Z0.2000
N550G1X4.7500Y11.1560Z-1.4500F120.0
N560G00X4.7500Y11.1560Z2.0000
N570G00X4.7500Y17.1560Z2.0000
N580G00X4.7500Y17.1560Z0.2000
N590G1X4.7500Y17.1560Z-0.1813F120.0
N600G00X4.7500Y17.1560Z0.2000
N610G1X4.7500Y17.1560Z-0.3625F120.0
N620G00X4.7500Y17.1560Z0.2000
N630G1X4.7500Y17.1560Z-0.5438F120.0
N640G00X4.7500Y17.1560Z0.2000
N650G1X4.7500Y17.1560Z-0.7250F120.0
N660G00X4.7500Y17.1560Z0.2000
N670G1X4.7500Y17.1560Z-0.9063F120.0
N680G00X4.7500Y17.1560Z0.2000
N690G1X4.7500Y17.1560Z-1.0875F120.0
N700G00X4.7500Y17.1560Z0.2000
N710G1X4.7500Y17.1560Z-1.2688F120.0
N720G00X4.7500Y17.1560Z0.2000
N730G1X4.7500Y17.1560Z-1.4500F120.0
N740G00X4.7500Y17.1560Z2.0000
N750G00X4.7500Y23.1560Z2.0000
N760G00X4.7500Y23.1560Z0.2000
N770G1X4.7500Y23.1560Z-0.1813F120.0
N780G00X4.7500Y23.1560Z0.2000
N790G1X4.7500Y23.1560Z-0.3625F120.0
N800G00X4.7500Y23.1560Z0.2000
N810G1X4.7500Y23.1560Z-0.5438F120.0
N820G00X4.7500Y23.1560Z0.2000
N830G1X4.7500Y23.1560Z-0.7250F120.0
N840G00X4.7500Y23.1560Z0.2000
N850G1X4.7500Y23.1560Z-0.9063F120.0
N860G00X4.7500Y23.1560Z0.2000
N870G1X4.7500Y23.1560Z-1.0875F120.0
N880G00X4.7500Y23.1560Z0.2000
N890G1X4.7500Y23.1560Z-1.2688F120.0
N900G00X4.7500Y23.1560Z0.2000
N910G1X4.7500Y23.1560Z-1.4500F120.0
N920G00X4.7500Y23.1560Z2.0000
N930G00X4.7500Y29.1560Z2.0000
N940G00X4.7500Y29.1560Z0.2000
N950G1X4.7500Y29.1560Z-0.1813F120.0
N960G00X4.7500Y29.1560Z0.2000
N970G1X4.7500Y29.1560Z-0.3625F120.0
N980G00X4.7500Y29.1560Z0.2000
N990G1X4.7500Y29.1560Z-0.5438F120.0
N1000G00X4.7500Y29.1560Z0.2000
N1010G1X4.7500Y29.1560Z-0.7250F120.0
N1020G00X4.7500Y29.1560Z0.2000
N1030G1X4.7500Y29.1560Z-0.9063F120.0
N1040G00X4.7500Y29.1560Z0.2000
N1050G1X4.7500Y29.1560Z-1.0875F120.0
N1060G00X4.7500Y29.1560Z0.2000
N1070G1X4.7500Y29.1560Z-1.2688F120.0
N1080G00X4.7500Y29.1560Z0.2000
N1090G1X4.7500Y29.1560Z-1.4500F120.0
N1100G00X4.7500Y29.1560Z2.0000
N1110G00X4.7500Y35.1560Z2.0000
N1120G00X4.7500Y35.1560Z0.2000
N1130G1X4.7500Y35.1560Z-0.1813F120.0
N1140G00X4.7500Y35.1560Z0.2000
N1150G1X4.7500Y35.1560Z-0.3625F120.0
N1160G00X4.7500Y35.1560Z0.2000
N1170G1X4.7500Y35.1560Z-0.5438F120.0
N1180G00X4.7500Y35.1560Z0.2000
N1190G1X4.7500Y35.1560Z-0.7250F120.0
N1200G00X4.7500Y35.1560Z0.2000
N1210G1X4.7500Y35.1560Z-0.9063F120.0
N1220G00X4.7500Y35.1560Z0.2000
N1230G1X4.7500Y35.1560Z-1.0875F120.0
N1240G00X4.7500Y35.1560Z0.2000
N1250G1X4.7500Y35.1560Z-1.2688F120.0
N1260G00X4.7500Y35.1560Z0.2000
N1270G1X4.7500Y35.1560Z-1.4500F120.0
N1280G00X4.7500Y35.1560Z2.0000
N1290G00X4.7500Y41.1560Z2.0000
N1300G00X4.7500Y41.1560Z0.2000
N1310G1X4.7500Y41.1560Z-0.1813F120.0
N1320G00X4.7500Y41.1560Z0.2000
N1330G1X4.7500Y41.1560Z-0.3625F120.0
N1340G00X4.7500Y41.1560Z0.2000
N1350G1X4.7500Y41.1560Z-0.5438F120.0
N1360G00X4.7500Y41.1560Z0.2000
N1370G1X4.7500Y41.1560Z-0.7250F120.0
N1380G00X4.7500Y41.1560Z0.2000
N1390G1X4.7500Y41.1560Z-0.9063F120.0
N1400G00X4.7500Y41.1560Z0.2000
N1410G1X4.7500Y41.1560Z-1.0875F120.0
N1420G00X4.7500Y41.1560Z0.2000
N1430G1X4.7500Y41.1560Z-1.2688F120.0
N1440G00X4.7500Y41.1560Z0.2000
N1450G1X4.7500Y41.1560Z-1.4500F120.0
N1460G00X4.7500Y41.1560Z2.0000
N1470G00X4.7500Y47.1560Z2.0000
N1480G00X4.7500Y47.1560Z0.2000
N1490G1X4.7500Y47.1560Z-0.1813F120.0
N1500G00X4.7500Y47.1560Z0.2000
N1510G1X4.7500Y47.1560Z-0.3625F120.0
N1520G00X4.7500Y47.1560Z0.2000
N1530G1X4.7500Y47.1560Z-0.5438F120.0
N1540G00X4.7500Y47.1560Z0.2000
N1550G1X4.7500Y47.1560Z-0.7250F120.0
N1560G00X4.7500Y47.1560Z0.2000
N1570G1X4.7500Y47.1560Z-0.9063F120.0
N1580G00X4.7500Y47.1560Z0.2000
N1590G1X4.7500Y47.1560Z-1.0875F120.0
N1600G00X4.7500Y47.1560Z0.2000
N1610G1X4.7500Y47.1560Z-1.2688F120.0
N1620G00X4.7500Y47.1560Z0.2000
N1630G1X4.7500Y47.1560Z-1.4500F120.0
N1640G00X4.7500Y47.1560Z2.0000
N1650G00X4.7500Y53.1560Z2.0000
N1660G00X4.7500Y53.1560Z0.2000
N1670G1X4.7500Y53.1560Z-0.1813F120.0
N1680G00X4.7500Y53.1560Z0.2000
N1690G1X4.7500Y53.1560Z-0.3625F120.0
N1700G00X4.7500Y53.1560Z0.2000
N1710G1X4.7500Y53.1560Z-0.5438F120.0
N1720G00X4.7500Y53.1560Z0.2000
N1730G1X4.7500Y53.1560Z-0.7250F120.0
N1740G00X4.7500Y53.1560Z0.2000
N1750G1X4.7500Y53.1560Z-0.9063F120.0
N1760G00X4.7500Y53.1560Z0.2000
N1770G1X4.7500Y53.1560Z-1.0875F120.0
N1780G00X4.7500Y53.1560Z0.2000
N1790G1X4.7500Y53.1560Z-1.2688F120.0
N1800G00X4.7500Y53.1560Z0.2000
N1810G1X4.7500Y53.1560Z-1.4500F120.0
N1820G00X4.7500Y53.1560Z2.0000
N1830G00X4.7500Y59.1560Z2.0000
N1840G00X4.7500Y59.1560Z0.2000
N1850G1X4.7500Y59.1560Z-0.1813F120.0
N1860G00X4.7500Y59.1560Z0.2000
N1870G1X4.7500Y59.1560Z-0.3625F120.0
N1880G00X4.7500Y59.1560Z0.2000
N1890G1X4.7500Y59.1560Z-0.5438F120.0
N1900G00X4.7500Y59.1560Z0.2000
N1910G1X4.7500Y59.1560Z-0.7250F120.0
N1920G00X4.7500Y59.1560Z0.2000
N1930G1X4.7500Y59.1560Z-0.9063F120.0
N1940G00X4.7500Y59.1560Z0.2000
N1950G1X4.7500Y59.1560Z-1.0875F120.0
N1960G00X4.7500Y59.1560Z0.2000
N1970G1X4.7500Y59.1560Z-1.2688F120.0
N1980G00X4.7500Y59.1560Z0.2000
N1990G1X4.7500Y59.1560Z-1.4500F120.0
N2000G00X4.7500Y59.1560Z2.0000
N2010G00X4.7500Y65.1560Z2.0000
N2020G00X4.7500Y65.1560Z0.2000
N2030G1X4.7500Y65.1560Z-0.1813F120.0
N2040G00X4.7500Y65.1560Z0.2000
N2050G1X4.7500Y65.1560Z-0.3625F120.0
N2060G00X4.7500Y65.1560Z0.2000
N2070G1X4.7500Y65.1560Z-0.5438F120.0
N2080G00X4.7500Y65.1560Z0.2000
N2090G1X4.7500Y65.1560Z-0.7250F120.0
N2100G00X4.7500Y65.1560Z0.2000
N2110G1X4.7500Y65.1560Z-0.9063F120.0
N2120G00X4.7500Y65.1560Z0.2000
N2130G1X4.7500Y65.1560Z-1.0875F120.0
N2140G00X4.7500Y65.1560Z0.2000
N2150G1X4.7500Y65.1560Z-1.2688F120.0
N2160G00X4.7500Y65.1560Z0.2000
N2170G1X4.7500Y65.1560Z-1.4500F120.0
N2180G00X4.7500Y65.1560Z2.0000
N2190G00X4.7500Y71.1560Z2.0000
N2200G00X4.7500Y71.1560Z0.2000
N2210G1X4.7500Y71.1560Z-0.1813F120.0
N2220G00X4.7500Y71.1560Z0.2000
N2230G1X4.7500Y71.1560Z-0.3625F120.0
N2240G00X4.7500Y71.1560Z0.2000
N2250G1X4.7500Y71.1560Z-0.5438F120.0
N2260G00X4.7500Y71.1560Z0.2000
N2270G1X4.7500Y71.1560Z-0.7250F120.0
N2280G00X4.7500Y71.1560Z0.2000
N2290G1X4.7500Y71.1560Z-0.9063F120.0
N2300G00X4.7500Y71.1560Z0.2000
N2310G1X4.7500Y71.1560Z-1.0875F120.0
N2320G00X4.7500Y71.1560Z0.2000
N2330G1X4.7500Y71.1560Z-1.2688F120.0
N2340G00X4.7500Y71.1560Z0.2000
N2350G1X4.7500Y71.1560Z-1.4500F120.0
N2360G00X4.7500Y71.1560Z2.0000
N2370G00X4.7500Y77.1560Z2.0000
N2380G00X4.7500Y77.1560Z0.2000
N2390G1X4.7500Y77.1560Z-0.1813F120.0
N2400G00X4.7500Y77.1560Z0.2000
N2410G1X4.7500Y77.1560Z-0.3625F120.0
N2420G00X4.7500Y77.1560Z0.2000
N2430G1X4.7500Y77.1560Z-0.5438F120.0
N2440G00X4.7500Y77.1560Z0.2000
N2450G1X4.7500Y77.1560Z-0.7250F120.0
N2460G00X4.7500Y77.1560Z0.2000
N2470G1X4.7500Y77.1560Z-0.9063F120.0
N2480G00X4.7500Y77.1560Z0.2000
N2490G1X4.7500Y77.1560Z-1.0875F120.0
N2500G00X4.7500Y77.1560Z0.2000
N2510G1X4.7500Y77.1560Z-1.2688F120.0
N2520G00X4.7500Y77.1560Z0.2000
N2530G1X4.7500Y77.1560Z-1.4500F120.0
N2540G00X4.7500Y77.1560Z2.0000
N2550G00X4.7500Y83.1560Z2.0000
N2560G00X4.7500Y83.1560Z0.2000
N2570G1X4.7500Y83.1560Z-0.1813F120.0
N2580G00X4.7500Y83.1560Z0.2000
N2590G1X4.7500Y83.1560Z-0.3625F120.0
N2600G00X4.7500Y83.1560Z0.2000
N2610G1X4.7500Y83.1560Z-0.5438F120.0
N2620G00X4.7500Y83.1560Z0.2000
N2630G1X4.7500Y83.1560Z-0.7250F120.0
N2640G00X4.7500Y83.1560Z0.2000
N2650G1X4.7500Y83.1560Z-0.9063F120.0
N2660G00X4.7500Y83.1560Z0.2000
N2670G1X4.7500Y83.1560Z-1.0875F120.0
N2680G00X4.7500Y83.1560Z0.2000
N2690G1X4.7500Y83.1560Z-1.2688F120.0
N2700G00X4.7500Y83.1560Z0.2000
N2710G1X4.7500Y83.1560Z-1.4500F120.0
N2720G00X4.7500Y83.1560Z2.0000
N2730G00X4.7500Y89.1560Z2.0000
N2740G00X4.7500Y89.1560Z0.2000
N2750G1X4.7500Y89.1560Z-0.1813F120.0
N2760G00X4.7500Y89.1560Z0.2000
N2770G1X4.7500Y89.1560Z-0.3625F120.0
N2780G00X4.7500Y89.1560Z0.2000
N2790G1X4.7500Y89.1560Z-0.5438F120.0
N2800G00X4.7500Y89.1560Z0.2000
N2810G1X4.7500Y89.1560Z-0.7250F120.0
N2820G00X4.7500Y89.1560Z0.2000
N2830G1X4.7500Y89.1560Z-0.9063F120.0
N2840G00X4.7500Y89.1560Z0.2000
N2850G1X4.7500Y89.1560Z-1.0875F120.0
N2860G00X4.7500Y89.1560Z0.2000
N2870G1X4.7500Y89.1560Z-1.2688F120.0
N2880G00X4.7500Y89.1560Z0.2000
N2890G1X4.7500Y89.1560Z-1.4500F120.0
N2900G00X4.7500Y89.1560Z2.0000
N2910G00X4.7500Y95.1560Z2.0000
N2920G00X4.7500Y95.1560Z0.2000
N2930G1X4.7500Y95.1560Z-0.1813F120.0
N2940G00X4.7500Y95.1560Z0.2000
N2950G1X4.7500Y95.1560Z-0.3625F120.0
N2960G00X4.7500Y95.1560Z0.2000
N2970G1X4.7500Y95.1560Z-0.5438F120.0
N2980G00X4.7500Y95.1560Z0.2000
N2990G1X4.7500Y95.1560Z-0.7250F120.0
N3000G00X4.7500Y95.1560Z0.2000
N3010G1X4.7500Y95.1560Z-0.9063F120.0
N3020G00X4.7500Y95.1560Z0.2000
N3030G1X4.7500Y95.1560Z-1.0875F120.0
N3040G00X4.7500Y95.1560Z0.2000
N3050G1X4.7500Y95.1560Z-1.2688F120.0
N3060G00X4.7500Y95.1560Z0.2000
N3070G1X4.7500Y95.1560Z-1.4500F120.0
N3080G00X4.7500Y95.1560Z2.0000
N3090G00X10.7500Y95.1560Z2.0000
N3100G00X10.7500Y95.1560Z0.2000
N3110G1X10.7500Y95.1560Z-0.1813F120.0
N3120G00X10.7500Y95.1560Z0.2000
N3130G1X10.7500Y95.1560Z-0.3625F120.0
N3140G00X10.7500Y95.1560Z0.2000
N3150G1X10.7500Y95.1560Z-0.5438F120.0
N3160G00X10.7500Y95.1560Z0.2000
N3170G1X10.7500Y95.1560Z-0.7250F120.0
N3180G00X10.7500Y95.1560Z0.2000
N3190G1X10.7500Y95.1560Z-0.9063F120.0
N3200G00X10.7500Y95.1560Z0.2000
N3210G1X10.7500Y95.1560Z-1.0875F120.0
N3220G00X10.7500Y95.1560Z0.2000
N3230G1X10.7500Y95.1560Z-1.2688F120.0
N3240G00X10.7500Y95.1560Z0.2000
N3250G1X10.7500Y95.1560Z-1.4500F120.0
N3260G00X10.7500Y95.1560Z2.0000
N3270G00X10.7500Y89.1560Z2.0000
N3280G00X10.7500Y89.1560Z0.2000
N3290G1X10.7500Y89.1560Z-0.1813F120.0
N3300G00X10.7500Y89.1560Z0.2000
N3310G1X10.7500Y89.1560Z-0.3625F120.0
N3320G00X10.7500Y89.1560Z0.2000
N3330G1X10.7500Y89.1560Z-0.5438F120.0
N3340G00X10.7500Y89.1560Z0.2000
N3350G1X10.7500Y89.1560Z-0.7250F120.0
N3360G00X10.7500Y89.1560Z0.2000
N3370G1X10.7500Y89.1560Z-0.9063F120.0
N3380G00X10.7500Y89.1560Z0.2000
N3390G1X10.7500Y89.1560Z-1.0875F120.0
N3400G00X10.7500Y89.1560Z0.2000
N3410G1X10.7500Y89.1560Z-1.2688F120.0
N3420G00X10.7500Y89.1560Z0.2000
N3430G1X10.7500Y89.1560Z-1.4500F120.0
N3440G00X10.7500Y89.1560Z2.0000
N3450G00X10.7500Y83.1560Z2.0000
N3460G00X10.7500Y83.1560Z0.2000
N3470G1X10.7500Y83.1560Z-0.1813F120.0
N3480G00X10.7500Y83.1560Z0.2000
N3490G1X10.7500Y83.1560Z-0.3625F120.0
N3500G00X10.7500Y83.1560Z0.2000
N3510G1X10.7500Y83.1560Z-0.5438F120.0
N3520G00X10.7500Y83.1560Z0.2000
N3530G1X10.7500Y83.1560Z-0.7250F120.0
N3540G00X10.7500Y83.1560Z0.2000
N3550G1X10.7500Y83.1560Z-0.9063F120.0
N3560G00X10.7500Y83.1560Z0.2000
N3570G1X10.7500Y83.1560Z-1.0875F120.0
N3580G00X10.7500Y83.1560Z0.2000
N3590G1X10.7500Y83.1560Z-1.2688F120.0
N3600G00X10.7500Y83.1560Z0.2000
N3610G1X10.7500Y83.1560Z-1.4500F120.0
N3620G00X10.7500Y83.1560Z2.0000
N3630G00X10.7500Y77.1560Z2.0000
N3640G00X10.7500Y77.1560Z0.2000
N3650G1X10.7500Y77.1560Z-0.1813F120.0
N3660G00X10.7500Y77.1560Z0.2000
N3670G1X10.7500Y77.1560Z-0.3625F120.0
N3680G00X10.7500Y77.1560Z0.2000
N3690G1X10.7500Y77.1560Z-0.5438F120.0
N3700G00X10.7500Y77.1560Z0.2000
N3710G1X10.7500Y77.1560Z-0.7250F120.0
N3720G00X10.7500Y77.1560Z0.2000
N3730G1X10.7500Y77.1560Z-0.9063F120.0
N3740G00X10.7500Y77.1560Z0.2000
N3750G1X10.7500Y77.1560Z-1.0875F120.0
N3760G00X10.7500Y77.1560Z0.2000
N3770G1X10.7500Y77.1560Z-1.2688F120.0
N3780G00X10.7500Y77.1560Z0.2000
N3790G1X10.7500Y77.1560Z-1.4500F120.0
N3800G00X10.7500Y77.1560Z2.0000
N3810G00X10.7500Y71.1560Z2.0000
N3820G00X10.7500Y71.1560Z0.2000
N3830G1X10.7500Y71.1560Z-0.1813F120.0
N3840G00X10.7500Y71.1560Z0.2000
N3850G1X10.7500Y71.1560Z-0.3625F120.0
N3860G00X10.7500Y71.1560Z0.2000
N3870G1X10.7500Y71.1560Z-0.5438F120.0
N3880G00X10.7500Y71.1560Z0.2000
N3890G1X10.7500Y71.1560Z-0.7250F120.0
N3900G00X10.7500Y71.1560Z0.2000
N3910G1X10.7500Y71.1560Z-0.9063F120.0
N3920G00X10.7500Y71.1560Z0.2000
N3930G1X10.7500Y71.1560Z-1.0875F120.0
N3940G00X10.7500Y71.1560Z0.2000
N3950G1X10.7500Y71.1560Z-1.2688F120.0
N3960G00X10.7500Y71.1560Z0.2000
N3970G1X10.7500Y71.1560Z-1.4500F120.0
N3980G00X10.7500Y71.1560Z2.0000
N3990G00X10.7500Y65.1560Z2.0000
N4000G00X10.7500Y65.1560Z0.2000
N4010G1X10.7500Y65.1560Z-0.1813F120.0
N4020G00X10.7500Y65.1560Z0.2000
N4030G1X10.7500Y65.1560Z-0.3625F120.0
N4040G00X10.7500Y65.1560Z0.2000
N4050G1X10.7500Y65.1560Z-0.5438F120.0
N4060G00X10.7500Y65.1560Z0.2000
N4070G1X10.7500Y65.1560Z-0.7250F120.0
N4080G00X10.7500Y65.1560Z0.2000
N4090G1X10.7500Y65.1560Z-0.9063F120.0
N4100G00X10.7500Y65.1560Z0.2000
N4110G1X10.7500Y65.1560Z-1.0875F120.0
N4120G00X10.7500Y65.1560Z0.2000
N4130G1X10.7500Y65.1560Z-1.2688F120.0
N4140G00X10.7500Y65.1560Z0.2000
N4150G1X10.7500Y65.1560Z-1.4500F120.0
N4160G00X10.7500Y65.1560Z2.0000
N4170G00X10.7500Y59.1560Z2.0000
N4180G00X10.7500Y59.1560Z0.2000
N4190G1X10.7500Y59.1560Z-0.1813F120.0
N4200G00X10.7500Y59.1560Z0.2000
N4210G1X10.7500Y59.1560Z-0.3625F120.0
N4220G00X10.7500Y59.1560Z0.2000
N4230G1X10.7500Y59.1560Z-0.5438F120.0
N4240G00X10.7500Y59.1560Z0.2000
N4250G1X10.7500Y59.1560Z-0.7250F120.0
N4260G00X10.7500Y59.1560Z0.2000
N4270G1X10.7500Y59.1560Z-0.9063F120.0
N4280G00X10.7500Y59.1560Z0.2000
N4290G1X10.7500Y59.1560Z-1.0875F120.0
N4300G00X10.7500Y59.1560Z0.2000
N4310G1X10.7500Y59.1560Z-1.2688F120.0
N4320G00X10.7500Y59.1560Z0.2000
N4330G1X10.7500Y59.1560Z-1.4500F120.0
N4340G00X10.7500Y59.1560Z2.0000
N4350G00X10.7500Y53.1560Z2.0000
N4360G00X10.7500Y53.1560Z0.2000
N4370G1X10.7500Y53.1560Z-0.1813F120.0
N4380G00X10.7500Y53.1560Z0.2000
N4390G1X10.7500Y53.1560Z-0.3625F120.0
N4400G00X10.7500Y53.1560Z0.2000
N4410G1X10.7500Y53.1560Z-0.5438F120.0
N4420G00X10.7500Y53.1560Z0.2000
N4430G1X10.7500Y53.1560Z-0.7250F120.0
N4440G00X10.7500Y53.1560Z0.2000
N4450G1X10.7500Y53.1560Z-0.9063F120.0
N4460G00X10.7500Y53.1560Z0.2000
N4470G1X10.7500Y53.1560Z-1.0875F120.0
N4480G00X10.7500Y53.1560Z0.2000
N4490G1X10.7500Y53.1560Z-1.2688F120.0
N4500G00X10.7500Y53.1560Z0.2000
N4510G1X10.7500Y53.1560Z-1.4500F120.0
N4520G00X10.7500Y53.1560Z2.0000
N4530G00X10.7500Y47.1560Z2.0000
N4540G00X10.7500Y47.1560Z0.2000
N4550G1X10.7500Y47.1560Z-0.1813F120.0
N4560G00X10.7500Y47.1560Z0.2000
N4570G1X10.7500Y47.1560Z-0.3625F120.0
N4580G00X10.7500Y47.1560Z0.2000
N4590G1X10.7500Y47.1560Z-0.5438F120.0
N4600G00X10.7500Y47.1560Z0.2000
N4610G1X10.7500Y47.1560Z-0.7250F120.0
N4620G00X10.7500Y47.1560Z0.2000
N4630G1X10.7500Y47.1560Z-0.9063F120.0
N4640G00X10.7500Y47.1560Z0.2000
N4650G1X10.7500Y47.1560Z-1.0875F120.0
N4660G00X10.7500Y47.1560Z0.2000
N4670G1X10.7500Y47.1560Z-1.2688F120.0
N4680G00X10.7500Y47.1560Z0.2000
N4690G1X10.7500Y47.1560Z-1.4500F120.0
N4700G00X10.7500Y47.1560Z2.0000
N4710G00X10.7500Y41.1560Z2.0000
N4720G00X10.7500Y41.1560Z0.2000
N4730G1X10.7500Y41.1560Z-0.1813F120.0
N4740G00X10.7500Y41.1560Z0.2000
N4750G1X10.7500Y41.1560Z-0.3625F120.0
N4760G00X10.7500Y41.1560Z0.2000
N4770G1X10.7500Y41.1560Z-0.5438F120.0
N4780G00X10.7500Y41.1560Z0.2000
N4790G1X10.7500Y41.1560Z-0.7250F120.0
N4800G00X10.7500Y41.1560Z0.2000
N4810G1X10.7500Y41.1560Z-0.9063F120.0
N4820G00X10.7500Y41.1560Z0.2000
N4830G1X10.7500Y41.1560Z-1.0875F120.0
N4840G00X10.7500Y41.1560Z0.2000
N4850G1X10.7500Y41.1560Z-1.2688F120.0
N4860G00X10.7500Y41.1560Z0.2000
N4870G1X10.7500Y41.1560Z-1.4500F120.0
N4880G00X10.7500Y41.1560Z2.0000
N4890G00X10.7500Y35.1560Z2.0000
N4900G00X10.7500Y35.1560Z0.2000
N4910G1X10.7500Y35.1560Z-0.1813F120.0
N4920G00X10.7500Y35.1560Z0.2000
N4930G1X10.7500Y35.1560Z-0.3625F120.0
N4940G00X10.7500Y35.1560Z0.2000
N4950G1X10.7500Y35.1560Z-0.5438F120.0
N4960G00X10.7500Y35.1560Z0.2000
N4970G1X10.7500Y35.1560Z-0.7250F120.0
N4980G00X10.7500Y35.1560Z0.2000
N4990G1X10.7500Y35.1560Z-0.9063F120.0
N5000G00X10.7500Y35.1560Z0.2000
N5010G1X10.7500Y35.1560Z-1.0875F120.0
N5020G00X10.7500Y35.1560Z0.2000
N5030G1X10.7500Y35.1560Z-1.2688F120.0
N5040G00X10.7500Y35.1560Z0.2000
N5050G1X10.7500Y35.1560Z-1.4500F120.0
N5060G00X10.7500Y35.1560Z2.0000
N5070G00X10.7500Y29.1560Z2.0000
N5080G00X10.7500Y29.1560Z0.2000
N5090G1X10.7500Y29.1560Z-0.1813F120.0
N5100G00X10.7500Y29.1560Z0.2000
N5110G1X10.7500Y29.1560Z-0.3625F120.0
N5120G00X10.7500Y29.1560Z0.2000
N5130G1X10.7500Y29.1560Z-0.5438F120.0
N5140G00X10.7500Y29.1560Z0.2000
N5150G1X10.7500Y29.1560Z-0.7250F120.0
N5160G00X10.7500Y29.1560Z0.2000
N5170G1X10.7500Y29.1560Z-0.9063F120.0
N5180G00X10.7500Y29.1560Z0.2000
N5190G1X10.7500Y29.1560Z-1.0875F120.0
N5200G00X10.7500Y29.1560Z0.2000
N5210G1X10.7500Y29.1560Z-1.2688F120.0
N5220G00X10.7500Y29.1560Z0.2000
N5230G1X10.7500Y29.1560Z-1.4500F120.0
N5240G00X10.7500Y29.1560Z2.0000
N5250G00X10.7500Y23.1560Z2.0000
N5260G00X10.7500Y23.1560Z0.2000
N5270G1X10.7500Y23.1560Z-0.1813F120.0
N5280G00X10.7500Y23.1560Z0.2000
N5290G1X10.7500Y23.1560Z-0.3625F120.0
N5300G00X10.7500Y23.1560Z0.2000
N5310G1X10.7500Y23.1560Z-0.5438F120.0
N5320G00X10.7500Y23.1560Z0.2000
N5330G1X10.7500Y23.1560Z-0.7250F120.0
N5340G00X10.7500Y23.1560Z0.2000
N5350G1X10.7500Y23.1560Z-0.9063F120.0
N5360G00X10.7500Y23.1560Z0.2000
N5370G1X10.7500Y23.1560Z-1.0875F120.0
N5380G00X10.7500Y23.1560Z0.2000
N5390G1X10.7500Y23.1560Z-1.2688F120.0
N5400G00X10.7500Y23.1560Z0.2000
N5410G1X10.7500Y23.1560Z-1.4500F120.0
N5420G00X10.7500Y23.1560Z2.0000
N5430G00X10.7500Y17.1560Z2.0000
N5440G00X10.7500Y17.1560Z0.2000
N5450G1X10.7500Y17.1560Z-0.1813F120.0
N5460G00X10.7500Y17.1560Z0.2000
N5470G1X10.7500Y17.1560Z-0.3625F120.0
N5480G00X10.7500Y17.1560Z0.2000
N5490G1X10.7500Y17.1560Z-0.5438F120.0
N5500G00X10.7500Y17.1560Z0.2000
N5510G1X10.7500Y17.1560Z-0.7250F120.0
N5520G00X10.7500Y17.1560Z0.2000
N5530G1X10.7500Y17.1560Z-0.9063F120.0
N5540G00X10.7500Y17.1560Z0.2000
N5550G1X10.7500Y17.1560Z-1.0875F120.0
N5560G00X10.7500Y17.1560Z0.2000
N5570G1X10.7500Y17.1560Z-1.2688F120.0
N5580G00X10.7500Y17.1560Z0.2000
N5590G1X10.7500Y17.1560Z-1.4500F120.0
N5600G00X10.7500Y17.1560Z2.0000
N5610G00X10.7500Y11.1560Z2.0000
N5620G00X10.7500Y11.1560Z0.2000
N5630G1X10.7500Y11.1560Z-0.1813F120.0
N5640G00X10.7500Y11.1560Z0.2000
N5650G1X10.7500Y11.1560Z-0.3625F120.0
N5660G00X10.7500Y11.1560Z0.2000
N5670G1X10.7500Y11.1560Z-0.5438F120.0
N5680G00X10.7500Y11.1560Z0.2000
N5690G1X10.7500Y11.1560Z-0.7250F120.0
N5700G00X10.7500Y11.1560Z0.2000
N5710G1X10.7500Y11.1560Z-0.9063F120.0
N5720G00X10.7500Y11.1560Z0.2000
N5730G1X10.7500Y11.1560Z-1.0875F120.0
N5740G00X10.7500Y11.1560Z0.2000
N5750G1X10.7500Y11.1560Z-1.2688F120.0
N5760G00X10.7500Y11.1560Z0.2000
N5770G1X10.7500Y11.1560Z-1.4500F120.0
N5780G00X10.7500Y11.1560Z2.0000
N5790G00X10.7500Y5.1560Z2.0000
N5800G00X10.7500Y5.1560Z0.2000
N5810G1X10.7500Y5.1560Z-0.1813F120.0
N5820G00X10.7500Y5.1560Z0.2000
N5830G1X10.7500Y5.1560Z-0.3625F120.0
N5840G00X10.7500Y5.1560Z0.2000
N5850G1X10.7500Y5.1560Z-0.5438F120.0
N5860G00X10.7500Y5.1560Z0.2000
N5870G1X10.7500Y5.1560Z-0.7250F120.0
N5880G00X10.7500Y5.1560Z0.2000
N5890G1X10.7500Y5.1560Z-0.9063F120.0
N5900G00X10.7500Y5.1560Z0.2000
N5910G1X10.7500Y5.1560Z-1.0875F120.0
N5920G00X10.7500Y5.1560Z0.2000
N5930G1X10.7500Y5.1560Z-1.2688F120.0
N5940G00X10.7500Y5.1560Z0.2000
N5950G1X10.7500Y5.1560Z-1.4500F120.0
N5960G00X10.7500Y5.1560Z2.0000
N5970G00X16.7500Y5.1560Z2.0000
N5980G00X16.7500Y5.1560Z0.2000
N5990G1X16.7500Y5.1560Z-0.1813F120.0
N6000G00X16.7500Y5.1560Z0.2000
N6010G1X16.7500Y5.1560Z-0.3625F120.0
N6020G00X16.7500Y5.1560Z0.2000
N6030G1X16.7500Y5.1560Z-0.5438F120.0
N6040G00X16.7500Y5.1560Z0.2000
N6050G1X16.7500Y5.1560Z-0.7250F120.0
N6060G00X16.7500Y5.1560Z0.2000
N6070G1X16.7500Y5.1560Z-0.9063F120.0
N6080G00X16.7500Y5.1560Z0.2000
N6090G1X16.7500Y5.1560Z-1.0875F120.0
N6100G00X16.7500Y5.1560Z0.2000
N6110G1X16.7500Y5.1560Z-1.2688F120.0
N6120G00X16.7500Y5.1560Z0.2000
N6130G1X16.7500Y5.1560Z-1.4500F120.0
N6140G00X16.7500Y5.1560Z2.0000
N6150G00X16.7500Y11.1560Z2.0000
N6160G00X16.7500Y11.1560Z0.2000
N6170G1X16.7500Y11.1560Z-0.1813F120.0
N6180G00X16.7500Y11.1560Z0.2000
N6190G1X16.7500Y11.1560Z-0.3625F120.0
N6200G00X16.7500Y11.1560Z0.2000
N6210G1X16.7500Y11.1560Z-0.5438F120.0
N6220G00X16.7500Y11.1560Z0.2000
N6230G1X16.7500Y11.1560Z-0.7250F120.0
N6240G00X16.7500Y11.1560Z0.2000
N6250G1X16.7500Y11.1560Z-0.9063F120.0
N6260G00X16.7500Y11.1560Z0.2000
N6270G1X16.7500Y11.1560Z-1.0875F120.0
N6280G00X16.7500Y11.1560Z0.2000
N6290G1X16.7500Y11.1560Z-1.2688F120.0
N6300G00X16.7500Y11.1560Z0.2000
N6310G1X16.7500Y11.1560Z-1.4500F120.0
N6320G00X16.7500Y11.1560Z2.0000
N6330G00X16.7500Y17.1560Z2.0000
N6340G00X16.7500Y17.1560Z0.2000
N6350G1X16.7500Y17.1560Z-0.1813F120.0
N6360G00X16.7500Y17.1560Z0.2000
N6370G1X16.7500Y17.1560Z-0.3625F120.0
N6380G00X16.7500Y17.1560Z0.2000
N6390G1X16.7500Y17.1560Z-0.5438F120.0
N6400G00X16.7500Y17.1560Z0.2000
N6410G1X16.7500Y17.1560Z-0.7250F120.0
N6420G00X16.7500Y17.1560Z0.2000
N6430G1X16.7500Y17.1560Z-0.9063F120.0
N6440G00X16.7500Y17.1560Z0.2000
N6450G1X16.7500Y17.1560Z-1.0875F120.0
N6460G00X16.7500Y17.1560Z0.2000
N6470G1X16.7500Y17.1560Z-1.2688F120.0
N6480G00X16.7500Y17.1560Z0.2000
N6490G1X16.7500Y17.1560Z-1.4500F120.0
N6500G00X16.7500Y17.1560Z2.0000
N6510G00X16.7500Y23.1560Z2.0000
N6520G00X16.7500Y23.1560Z0.2000
N6530G1X16.7500Y23.1560Z-0.1813F120.0
N6540G00X16.7500Y23.1560Z0.2000
N6550G1X16.7500Y23.1560Z-0.3625F120.0
N6560G00X16.7500Y23.1560Z0.2000
N6570G1X16.7500Y23.1560Z-0.5438F120.0
N6580G00X16.7500Y23.1560Z0.2000
N6590G1X16.7500Y23.1560Z-0.7250F120.0
N6600G00X16.7500Y23.1560Z0.2000
N6610G1X16.7500Y23.1560Z-0.9063F120.0
N6620G00X16.7500Y23.1560Z0.2000
N6630G1X16.7500Y23.1560Z-1.0875F120.0
N6640G00X16.7500Y23.1560Z0.2000
N6650G1X16.7500Y23.1560Z-1.2688F120.0
N6660G00X16.7500Y23.1560Z0.2000
N6670G1X16.7500Y23.1560Z-1.4500F120.0
N6680G00X16.7500Y23.1560Z2.0000
N6690G00X16.7500Y29.1560Z2.0000
N6700G00X16.7500Y29.1560Z0.2000
N6710G1X16.7500Y29.1560Z-0.1813F120.0
N6720G00X16.7500Y29.1560Z0.2000
N6730G1X16.7500Y29.1560Z-0.3625F120.0
N6740G00X16.7500Y29.1560Z0.2000
N6750G1X16.7500Y29.1560Z-0.5438F120.0
N6760G00X16.7500Y29.1560Z0.2000
N6770G1X16.7500Y29.1560Z-0.7250F120.0
N6780G00X16.7500Y29.1560Z0.2000
N6790G1X16.7500Y29.1560Z-0.9063F120.0
N6800G00X16.7500Y29.1560Z0.2000
N6810G1X16.7500Y29.1560Z-1.0875F120.0
N6820G00X16.7500Y29.1560Z0.2000
N6830G1X16.7500Y29.1560Z-1.2688F120.0
N6840G00X16.7500Y29.1560Z0.2000
N6850G1X16.7500Y29.1560Z-1.4500F120.0
N6860G00X16.7500Y29.1560Z2.0000
N6870G00X16.7500Y35.1560Z2.0000
N6880G00X16.7500Y35.1560Z0.2000
N6890G1X16.7500Y35.1560Z-0.1813F120.0
N6900G00X16.7500Y35.1560Z0.2000
N6910G1X16.7500Y35.1560Z-0.3625F120.0
N6920G00X16.7500Y35.1560Z0.2000
N6930G1X16.7500Y35.1560Z-0.5438F120.0
N6940G00X16.7500Y35.1560Z0.2000
N6950G1X16.7500Y35.1560Z-0.7250F120.0
N6960G00X16.7500Y35.1560Z0.2000
N6970G1X16.7500Y35.1560Z-0.9063F120.0
N6980G00X16.7500Y35.1560Z0.2000
N6990G1X16.7500Y35.1560Z-1.0875F120.0
N7000G00X16.7500Y35.1560Z0.2000
N7010G1X16.7500Y35.1560Z-1.2688F120.0
N7020G00X16.7500Y35.1560Z0.2000
N7030G1X16.7500Y35.1560Z-1.4500F120.0
N7040G00X16.7500Y35.1560Z2.0000
N7050G00X16.7500Y41.1560Z2.0000
N7060G00X16.7500Y41.1560Z0.2000
N7070G1X16.7500Y41.1560Z-0.1813F120.0
N7080G00X16.7500Y41.1560Z0.2000
N7090G1X16.7500Y41.1560Z-0.3625F120.0
N7100G00X16.7500Y41.1560Z0.2000
N7110G1X16.7500Y41.1560Z-0.5438F120.0
N7120G00X16.7500Y41.1560Z0.2000
N7130G1X16.7500Y41.1560Z-0.7250F120.0
N7140G00X16.7500Y41.1560Z0.2000
N7150G1X16.7500Y41.1560Z-0.9063F120.0
N7160G00X16.7500Y41.1560Z0.2000
N7170G1X16.7500Y41.1560Z-1.0875F120.0
N7180G00X16.7500Y41.1560Z0.2000
N7190G1X16.7500Y41.1560Z-1.2688F120.0
N7200G00X16.7500Y41.1560Z0.2000
N7210G1X16.7500Y41.1560Z-1.4500F120.0
N7220G00X16.7500Y41.1560Z2.0000
N7230G00X16.7500Y47.1560Z2.0000
N7240G00X16.7500Y47.1560Z0.2000
N7250G1X16.7500Y47.1560Z-0.1813F120.0
N7260G00X16.7500Y47.1560Z0.2000
N7270G1X16.7500Y47.1560Z-0.3625F120.0
N7280G00X16.7500Y47.1560Z0.2000
N7290G1X16.7500Y47.1560Z-0.5438F120.0
N7300G00X16.7500Y47.1560Z0.2000
N7310G1X16.7500Y47.1560Z-0.7250F120.0
N7320G00X16.7500Y47.1560Z0.2000
N7330G1X16.7500Y47.1560Z-0.9063F120.0
N7340G00X16.7500Y47.1560Z0.2000
N7350G1X16.7500Y47.1560Z-1.0875F120.0
N7360G00X16.7500Y47.1560Z0.2000
N7370G1X16.7500Y47.1560Z-1.2688F120.0
N7380G00X16.7500Y47.1560Z0.2000
N7390G1X16.7500Y47.1560Z-1.4500F120.0
N7400G00X16.7500Y47.1560Z2.0000
N7410G00X16.7500Y53.1560Z2.0000
N7420G00X16.7500Y53.1560Z0.2000
N7430G1X16.7500Y53.1560Z-0.1813F120.0
N7440G00X16.7500Y53.1560Z0.2000
N7450G1X16.7500Y53.1560Z-0.3625F120.0
N7460G00X16.7500Y53.1560Z0.2000
N7470G1X16.7500Y53.1560Z-0.5438F120.0
N7480G00X16.7500Y53.1560Z0.2000
N7490G1X16.7500Y53.1560Z-0.7250F120.0
N7500G00X16.7500Y53.1560Z0.2000
N7510G1X16.7500Y53.1560Z-0.9063F120.0
N7520G00X16.7500Y53.1560Z0.2000
N7530G1X16.7500Y53.1560Z-1.0875F120.0
N7540G00X16.7500Y53.1560Z0.2000
N7550G1X16.7500Y53.1560Z-1.2688F120.0
N7560G00X16.7500Y53.1560Z0.2000
N7570G1X16.7500Y53.1560Z-1.4500F120.0
N7580G00X16.7500Y53.1560Z2.0000
N7590G00X16.7500Y59.1560Z2.0000
N7600G00X16.7500Y59.1560Z0.2000
N7610G1X16.7500Y59.1560Z-0.1813F120.0
N7620G00X16.7500Y59.1560Z0.2000
N7630G1X16.7500Y59.1560Z-0.3625F120.0
N7640G00X16.7500Y59.1560Z0.2000
N7650G1X16.7500Y59.1560Z-0.5438F120.0
N7660G00X16.7500Y59.1560Z0.2000
N7670G1X16.7500Y59.1560Z-0.7250F120.0
N7680G00X16.7500Y59.1560Z0.2000
N7690G1X16.7500Y59.1560Z-0.9063F120.0
N7700G00X16.7500Y59.1560Z0.2000
N7710G1X16.7500Y59.1560Z-1.0875F120.0
N7720G00X16.7500Y59.1560Z0.2000
N7730G1X16.7500Y59.1560Z-1.2688F120.0
N7740G00X16.7500Y59.1560Z0.2000
N7750G1X16.7500Y59.1560Z-1.4500F120.0
N7760G00X16.7500Y59.1560Z2.0000
N7770G00X16.7500Y65.1560Z2.0000
N7780G00X16.7500Y65.1560Z0.2000
N7790G1X16.7500Y65.1560Z-0.1813F120.0
N7800G00X16.7500Y65.1560Z0.2000
N7810G1X16.7500Y65.1560Z-0.3625F120.0
N7820G00X16.7500Y65.1560Z0.2000
N7830G1X16.7500Y65.1560Z-0.5438F120.0
N7840G00X16.7500Y65.1560Z0.2000
N7850G1X16.7500Y65.1560Z-0.7250F120.0
N7860G00X16.7500Y65.1560Z0.2000
N7870G1X16.7500Y65.1560Z-0.9063F120.0
N7880G00X16.7500Y65.1560Z0.2000
N7890G1X16.7500Y65.1560Z-1.0875F120.0
N7900G00X16.7500Y65.1560Z0.2000
N7910G1X16.7500Y65.1560Z-1.2688F120.0
N7920G00X16.7500Y65.1560Z0.2000
N7930G1X16.7500Y65.1560Z-1.4500F120.0
N7940G00X16.7500Y65.1560Z2.0000
N7950G00X16.7500Y71.1560Z2.0000
N7960G00X16.7500Y71.1560Z0.2000
N7970G1X16.7500Y71.1560Z-0.1813F120.0
N7980G00X16.7500Y71.1560Z0.2000
N7990G1X16.7500Y71.1560Z-0.3625F120.0
N8000G00X16.7500Y71.1560Z0.2000
N8010G1X16.7500Y71.1560Z-0.5438F120.0
N8020G00X16.7500Y71.1560Z0.2000
N8030G1X16.7500Y71.1560Z-0.7250F120.0
N8040G00X16.7500Y71.1560Z0.2000
N8050G1X16.7500Y71.1560Z-0.9063F120.0
N8060G00X16.7500Y71.1560Z0.2000
N8070G1X16.7500Y71.1560Z-1.0875F120.0
N8080G00X16.7500Y71.1560Z0.2000
N8090G1X16.7500Y71.1560Z-1.2688F120.0
N8100G00X16.7500Y71.1560Z0.2000
N8110G1X16.7500Y71.1560Z-1.4500F120.0
N8120G00X16.7500Y71.1560Z2.0000
N8130G00X16.7500Y77.1560Z2.0000
N8140G00X16.7500Y77.1560Z0.2000
N8150G1X16.7500Y77.1560Z-0.1813F120.0
N8160G00X16.7500Y77.1560Z0.2000
N8170G1X16.7500Y77.1560Z-0.3625F120.0
N8180G00X16.7500Y77.1560Z0.2000
N8190G1X16.7500Y77.1560Z-0.5438F120.0
N8200G00X16.7500Y77.1560Z0.2000
N8210G1X16.7500Y77.1560Z-0.7250F120.0
N8220G00X16.7500Y77.1560Z0.2000
N8230G1X16.7500Y77.1560Z-0.9063F120.0
N8240G00X16.7500Y77.1560Z0.2000
N8250G1X16.7500Y77.1560Z-1.0875F120.0
N8260G00X16.7500Y77.1560Z0.2000
N8270G1X16.7500Y77.1560Z-1.2688F120.0
N8280G00X16.7500Y77.1560Z0.2000
N8290G1X16.7500Y77.1560Z-1.4500F120.0
N8300G00X16.7500Y77.1560Z2.0000
N8310G00X16.7500Y83.1560Z2.0000
N8320G00X16.7500Y83.1560Z0.2000
N8330G1X16.7500Y83.1560Z-0.1813F120.0
N8340G00X16.7500Y83.1560Z0.2000
N8350G1X16.7500Y83.1560Z-0.3625F120.0
N8360G00X16.7500Y83.1560Z0.2000
N8370G1X16.7500Y83.1560Z-0.5438F120.0
N8380G00X16.7500Y83.1560Z0.2000
N8390G1X16.7500Y83.1560Z-0.7250F120.0
N8400G00X16.7500Y83.1560Z0.2000
N8410G1X16.7500Y83.1560Z-0.9063F120.0
N8420G00X16.7500Y83.1560Z0.2000
N8430G1X16.7500Y83.1560Z-1.0875F120.0
N8440G00X16.7500Y83.1560Z0.2000
N8450G1X16.7500Y83.1560Z-1.2688F120.0
N8460G00X16.7500Y83.1560Z0.2000
N8470G1X16.7500Y83.1560Z-1.4500F120.0
N8480G00X16.7500Y83.1560Z2.0000
N8490G00X16.7500Y89.1560Z2.0000
N8500G00X16.7500Y89.1560Z0.2000
N8510G1X16.7500Y89.1560Z-0.1813F120.0
N8520G00X16.7500Y89.1560Z0.2000
N8530G1X16.7500Y89.1560Z-0.3625F120.0
N8540G00X16.7500Y89.1560Z0.2000
N8550G1X16.7500Y89.1560Z-0.5438F120.0
N8560G00X16.7500Y89.1560Z0.2000
N8570G1X16.7500Y89.1560Z-0.7250F120.0
N8580G00X16.7500Y89.1560Z0.2000
N8590G1X16.7500Y89.1560Z-0.9063F120.0
N8600G00X16.7500Y89.1560Z0.2000
N8610G1X16.7500Y89.1560Z-1.0875F120.0
N8620G00X16.7500Y89.1560Z0.2000
N8630G1X16.7500Y89.1560Z-1.2688F120.0
N8640G00X16.7500Y89.1560Z0.2000
N8650G1X16.7500Y89.1560Z-1.4500F120.0
N8660G00X16.7500Y89.1560Z2.0000
N8670G00X16.7500Y95.1560Z2.0000
N8680G00X16.7500Y95.1560Z0.2000
N8690G1X16.7500Y95.1560Z-0.1813F120.0
N8700G00X16.7500Y95.1560Z0.2000
N8710G1X16.7500Y95.1560Z-0.3625F120.0
N8720G00X16.7500Y95.1560Z0.2000
N8730G1X16.7500Y95.1560Z-0.5438F120.0
N8740G00X16.7500Y95.1560Z0.2000
N8750G1X16.7500Y95.1560Z-0.7250F120.0
N8760G00X16.7500Y95.1560Z0.2000
N8770G1X16.7500Y95.1560Z-0.9063F120.0
N8780G00X16.7500Y95.1560Z0.2000
N8790G1X16.7500Y95.1560Z-1.0875F120.0
N8800G00X16.7500Y95.1560Z0.2000
N8810G1X16.7500Y95.1560Z-1.2688F120.0
N8820G00X16.7500Y95.1560Z0.2000
N8830G1X16.7500Y95.1560Z-1.4500F120.0
N8840G00X16.7500Y95.1560Z2.0000
N8850G00X22.7500Y95.1560Z2.0000
N8860G00X22.7500Y95.1560Z0.2000
N8870G1X22.7500Y95.1560Z-0.1813F120.0
N8880G00X22.7500Y95.1560Z0.2000
N8890G1X22.7500Y95.1560Z-0.3625F120.0
N8900G00X22.7500Y95.1560Z0.2000
N8910G1X22.7500Y95.1560Z-0.5438F120.0
N8920G00X22.7500Y95.1560Z0.2000
N8930G1X22.7500Y95.1560Z-0.7250F120.0
N8940G00X22.7500Y95.1560Z0.2000
N8950G1X22.7500Y95.1560Z-0.9063F120.0
N8960G00X22.7500Y95.1560Z0.2000
N8970G1X22.7500Y95.1560Z-1.0875F120.0
N8980G00X22.7500Y95.1560Z0.2000
N8990G1X22.7500Y95.1560Z-1.2688F120.0
N9000G00X22.7500Y95.1560Z0.2000
N9010G1X22.7500Y95.1560Z-1.4500F120.0
N9020G00X22.7500Y95.1560Z2.0000
N9030G00X22.7500Y89.1560Z2.0000
N9040G00X22.7500Y89.1560Z0.2000
N9050G1X22.7500Y89.1560Z-0.1813F120.0
N9060G00X22.7500Y89.1560Z0.2000
N9070G1X22.7500Y89.1560Z-0.3625F120.0
N9080G00X22.7500Y89.1560Z0.2000
N9090G1X22.7500Y89.1560Z-0.5438F120.0
N9100G00X22.7500Y89.1560Z0.2000
N9110G1X22.7500Y89.1560Z-0.7250F120.0
N9120G00X22.7500Y89.1560Z0.2000
N9130G1X22.7500Y89.1560Z-0.9063F120.0
N9140G00X22.7500Y89.1560Z0.2000
N9150G1X22.7500Y89.1560Z-1.0875F120.0
N9160G00X22.7500Y89.1560Z0.2000
N9170G1X22.7500Y89.1560Z-1.2688F120.0
N9180G00X22.7500Y89.1560Z0.2000
N9190G1X22.7500Y89.1560Z-1.4500F120.0
N9200G00X22.7500Y89.1560Z2.0000
N9210G00X22.7500Y83.1560Z2.0000
N9220G00X22.7500Y83.1560Z0.2000
N9230G1X22.7500Y83.1560Z-0.1813F120.0
N9240G00X22.7500Y83.1560Z0.2000
N9250G1X22.7500Y83.1560Z-0.3625F120.0
N9260G00X22.7500Y83.1560Z0.2000
N9270G1X22.7500Y83.1560Z-0.5438F120.0
N9280G00X22.7500Y83.1560Z0.2000
N9290G1X22.7500Y83.1560Z-0.7250F120.0
N9300G00X22.7500Y83.1560Z0.2000
N9310G1X22.7500Y83.1560Z-0.9063F120.0
N9320G00X22.7500Y83.1560Z0.2000
N9330G1X22.7500Y83.1560Z-1.0875F120.0
N9340G00X22.7500Y83.1560Z0.2000
N9350G1X22.7500Y83.1560Z-1.2688F120.0
N9360G00X22.7500Y83.1560Z0.2000
N9370G1X22.7500Y83.1560Z-1.4500F120.0
N9380G00X22.7500Y83.1560Z2.0000
N9390G00X22.7500Y77.1560Z2.0000
N9400G00X22.7500Y77.1560Z0.2000
N9410G1X22.7500Y77.1560Z-0.1813F120.0
N9420G00X22.7500Y77.1560Z0.2000
N9430G1X22.7500Y77.1560Z-0.3625F120.0
N9440G00X22.7500Y77.1560Z0.2000
N9450G1X22.7500Y77.1560Z-0.5438F120.0
N9460G00X22.7500Y77.1560Z0.2000
N9470G1X22.7500Y77.1560Z-0.7250F120.0
N9480G00X22.7500Y77.1560Z0.2000
N9490G1X22.7500Y77.1560Z-0.9063F120.0
N9500G00X22.7500Y77.1560Z0.2000
N9510G1X22.7500Y77.1560Z-1.0875F120.0
N9520G00X22.7500Y77.1560Z0.2000
N9530G1X22.7500Y77.1560Z-1.2688F120.0
N9540G00X22.7500Y77.1560Z0.2000
N9550G1X22.7500Y77.1560Z-1.4500F120.0
N9560G00X22.7500Y77.1560Z2.0000
N9570G00X22.7500Y71.1560Z2.0000
N9580G00X22.7500Y71.1560Z0.2000
N9590G1X22.7500Y71.1560Z-0.1813F120.0
N9600G00X22.7500Y71.1560Z0.2000
N9610G1X22.7500Y71.1560Z-0.3625F120.0
N9620G00X22.7500Y71.1560Z0.2000
N9630G1X22.7500Y71.1560Z-0.5438F120.0
N9640G00X22.7500Y71.1560Z0.2000
N9650G1X22.7500Y71.1560Z-0.7250F120.0
N9660G00X22.7500Y71.1560Z0.2000
N9670G1X22.7500Y71.1560Z-0.9063F120.0
N9680G00X22.7500Y71.1560Z0.2000
N9690G1X22.7500Y71.1560Z-1.0875F120.0
N9700G00X22.7500Y71.1560Z0.2000
N9710G1X22.7500Y71.1560Z-1.2688F120.0
N9720G00X22.7500Y71.1560Z0.2000
N9730G1X22.7500Y71.1560Z-1.4500F120.0
N9740G00X22.7500Y71.1560Z2.0000
N9750G00X22.7500Y65.1560Z2.0000
N9760G00X22.7500Y65.1560Z0.2000
N9770G1X22.7500Y65.1560Z-0.1813F120.0
N9780G00X22.7500Y65.1560Z0.2000
N9790G1X22.7500Y65.1560Z-0.3625F120.0
N9800G00X22.7500Y65.1560Z0.2000
N9810G1X22.7500Y65.1560Z-0.5438F120.0
N9820G00X22.7500Y65.1560Z0.2000
N9830G1X22.7500Y65.1560Z-0.7250F120.0
N9840G00X22.7500Y65.1560Z0.2000
N9850G1X22.7500Y65.1560Z-0.9063F120.0
N9860G00X22.7500Y65.1560Z0.2000
N9870G1X22.7500Y65.1560Z-1.0875F120.0
N9880G00X22.7500Y65.1560Z0.2000
N9890G1X22.7500Y65.1560Z-1.2688F120.0
N9900G00X22.7500Y65.1560Z0.2000
N9910G1X22.7500Y65.1560Z-1.4500F120.0
N9920G00X22.7500Y65.1560Z2.0000
N9930G00X22.7500Y59.1560Z2.0000
N9940G00X22.7500Y59.1560Z0.2000
N9950G1X22.7500Y59.1560Z-0.1813F120.0
N9960G00X22.7500Y59.1560Z0.2000
N9970G1X22.7500Y59.1560Z-0.3625F120.0
N9980G00X22.7500Y59.1560Z0.2000
N9990G1X22.7500Y59.1560Z-0.5438F120.0
N10000G00X22.7500Y59.1560Z0.2000
N10010G1X22.7500Y59.1560Z-0.7250F120.0
N10020G00X22.7500Y59.1560Z0.2000
N10030G1X22.7500Y59.1560Z-0.9063F120.0
N10040G00X22.7500Y59.1560Z0.2000
N10050G1X22.7500Y59.1560Z-1.0875F120.0
N10060G00X22.7500Y59.1560Z0.2000
N10070G1X22.7500Y59.1560Z-1.2688F120.0
N10080G00X22.7500Y59.1560Z0.2000
N10090G1X22.7500Y59.1560Z-1.4500F120.0
N10100G00X22.7500Y59.1560Z2.0000
N10110G00X22.7500Y53.1560Z2.0000
N10120G00X22.7500Y53.1560Z0.2000
N10130G1X22.7500Y53.1560Z-0.1813F120.0
N10140G00X22.7500Y53.1560Z0.2000
N10150G1X22.7500Y53.1560Z-0.3625F120.0
N10160G00X22.7500Y53.1560Z0.2000
N10170G1X22.7500Y53.1560Z-0.5438F120.0
N10180G00X22.7500Y53.1560Z0.2000
N10190G1X22.7500Y53.1560Z-0.7250F120.0
N10200G00X22.7500Y53.1560Z0.2000
N10210G1X22.7500Y53.1560Z-0.9063F120.0
N10220G00X22.7500Y53.1560Z0.2000
N10230G1X22.7500Y53.1560Z-1.0875F120.0
N10240G00X22.7500Y53.1560Z0.2000
N10250G1X22.7500Y53.1560Z-1.2688F120.0
N10260G00X22.7500Y53.1560Z0.2000
N10270G1X22.7500Y53.1560Z-1.4500F120.0
N10280G00X22.7500Y53.1560Z2.0000
N10290G00X22.7500Y47.1560Z2.0000
N10300G00X22.7500Y47.1560Z0.2000
N10310G1X22.7500Y47.1560Z-0.1813F120.0
N10320G00X22.7500Y47.1560Z0.2000
N10330G1X22.7500Y47.1560Z-0.3625F120.0
N10340G00X22.7500Y47.1560Z0.2000
N10350G1X22.7500Y47.1560Z-0.5438F120.0
N10360G00X22.7500Y47.1560Z0.2000
N10370G1X22.7500Y47.1560Z-0.7250F120.0
N10380G00X22.7500Y47.1560Z0.2000
N10390G1X22.7500Y47.1560Z-0.9063F120.0
N10400G00X22.7500Y47.1560Z0.2000
N10410G1X22.7500Y47.1560Z-1.0875F120.0
N10420G00X22.7500Y47.1560Z0.2000
N10430G1X22.7500Y47.1560Z-1.2688F120.0
N10440G00X22.7500Y47.1560Z0.2000
N10450G1X22.7500Y47.1560Z-1.4500F120.0
N10460G00X22.7500Y47.1560Z2.0000
N10470G00X22.7500Y41.1560Z2.0000
N10480G00X22.7500Y41.1560Z0.2000
N10490G1X22.7500Y41.1560Z-0.1813F120.0
N10500G00X22.7500Y41.1560Z0.2000
N10510G1X22.7500Y41.1560Z-0.3625F120.0
N10520G00X22.7500Y41.1560Z0.2000
N10530G1X22.7500Y41.1560Z-0.5438F120.0
N10540G00X22.7500Y41.1560Z0.2000
N10550G1X22.7500Y41.1560Z-0.7250F120.0
N10560G00X22.7500Y41.1560Z0.2000
N10570G1X22.7500Y41.1560Z-0.9063F120.0
N10580G00X22.7500Y41.1560Z0.2000
N10590G1X22.7500Y41.1560Z-1.0875F120.0
N10600G00X22.7500Y41.1560Z0.2000
N10610G1X22.7500Y41.1560Z-1.2688F120.0
N10620G00X22.7500Y41.1560Z0.2000
N10630G1X22.7500Y41.1560Z-1.4500F120.0
N10640G00X22.7500Y41.1560Z2.0000
N10650G00X22.7500Y35.1560Z2.0000
N10660G00X22.7500Y35.1560Z0.2000
N10670G1X22.7500Y35.1560Z-0.1813F120.0
N10680G00X22.7500Y35.1560Z0.2000
N10690G1X22.7500Y35.1560Z-0.3625F120.0
N10700G00X22.7500Y35.1560Z0.2000
N10710G1X22.7500Y35.1560Z-0.5438F120.0
N10720G00X22.7500Y35.1560Z0.2000
N10730G1X22.7500Y35.1560Z-0.7250F120.0
N10740G00X22.7500Y35.1560Z0.2000
N10750G1X22.7500Y35.1560Z-0.9063F120.0
N10760G00X22.7500Y35.1560Z0.2000
N10770G1X22.7500Y35.1560Z-1.0875F120.0
N10780G00X22.7500Y35.1560Z0.2000
N10790G1X22.7500Y35.1560Z-1.2688F120.0
N10800G00X22.7500Y35.1560Z0.2000
N10810G1X22.7500Y35.1560Z-1.4500F120.0
N10820G00X22.7500Y35.1560Z2.0000
N10830G00X22.7500Y29.1560Z2.0000
N10840G00X22.7500Y29.1560Z0.2000
N10850G1X22.7500Y29.1560Z-0.1813F120.0
N10860G00X22.7500Y29.1560Z0.2000
N10870G1X22.7500Y29.1560Z-0.3625F120.0
N10880G00X22.7500Y29.1560Z0.2000
N10890G1X22.7500Y29.1560Z-0.5438F120.0
N10900G00X22.7500Y29.1560Z0.2000
N10910G1X22.7500Y29.1560Z-0.7250F120.0
N10920G00X22.7500Y29.1560Z0.2000
N10930G1X22.7500Y29.1560Z-0.9063F120.0
N10940G00X22.7500Y29.1560Z0.2000
N10950G1X22.7500Y29.1560Z-1.0875F120.0
N10960G00X22.7500Y29.1560Z0.2000
N10970G1X22.7500Y29.1560Z-1.2688F120.0
N10980G00X22.7500Y29.1560Z0.2000
N10990G1X22.7500Y29.1560Z-1.4500F120.0
N11000G00X22.7500Y29.1560Z2.0000
N11010G00X22.7500Y23.1560Z2.0000
N11020G00X22.7500Y23.1560Z0.2000
N11030G1X22.7500Y23.1560Z-0.1813F120.0
N11040G00X22.7500Y23.1560Z0.2000
N11050G1X22.7500Y23.1560Z-0.3625F120.0
N11060G00X22.7500Y23.1560Z0.2000
N11070G1X22.7500Y23.1560Z-0.5438F120.0
N11080G00X22.7500Y23.1560Z0.2000
N11090G1X22.7500Y23.1560Z-0.7250F120.0
N11100G00X22.7500Y23.1560Z0.2000
N11110G1X22.7500Y23.1560Z-0.9063F120.0
N11120G00X22.7500Y23.1560Z0.2000
N11130G1X22.7500Y23.1560Z-1.0875F120.0
N11140G00X22.7500Y23.1560Z0.2000
N11150G1X22.7500Y23.1560Z-1.2688F120.0
N11160G00X22.7500Y23.1560Z0.2000
N11170G1X22.7500Y23.1560Z-1.4500F120.0
N11180G00X22.7500Y23.1560Z2.0000
N11190G00X22.7500Y17.1560Z2.0000
N11200G00X22.7500Y17.1560Z0.2000
N11210G1X22.7500Y17.1560Z-0.1813F120.0
N11220G00X22.7500Y17.1560Z0.2000
N11230G1X22.7500Y17.1560Z-0.3625F120.0
N11240G00X22.7500Y17.1560Z0.2000
N11250G1X22.7500Y17.1560Z-0.5438F120.0
N11260G00X22.7500Y17.1560Z0.2000
N11270G1X22.7500Y17.1560Z-0.7250F120.0
N11280G00X22.7500Y17.1560Z0.2000
N11290G1X22.7500Y17.1560Z-0.9063F120.0
N11300G00X22.7500Y17.1560Z0.2000
N11310G1X22.7500Y17.1560Z-1.0875F120.0
N11320G00X22.7500Y17.1560Z0.2000
N11330G1X22.7500Y17.1560Z-1.2688F120.0
N11340G00X22.7500Y17.1560Z0.2000
N11350G1X22.7500Y17.1560Z-1.4500F120.0
N11360G00X22.7500Y17.1560Z2.0000
N11370G00X22.7500Y11.1560Z2.0000
N11380G00X22.7500Y11.1560Z0.2000
N11390G1X22.7500Y11.1560Z-0.1813F120.0
N11400G00X22.7500Y11.1560Z0.2000
N11410G1X22.7500Y11.1560Z-0.3625F120.0
N11420G00X22.7500Y11.1560Z0.2000
N11430G1X22.7500Y11.1560Z-0.5438F120.0
N11440G00X22.7500Y11.1560Z0.2000
N11450G1X22.7500Y11.1560Z-0.7250F120.0
N11460G00X22.7500Y11.1560Z0.2000
N11470G1X22.7500Y11.1560Z-0.9063F120.0
N11480G00X22.7500Y11.1560Z0.2000
N11490G1X22.7500Y11.1560Z-1.0875F120.0
N11500G00X22.7500Y11.1560Z0.2000
N11510G1X22.7500Y11.1560Z-1.2688F120.0
N11520G00X22.7500Y11.1560Z0.2000
N11530G1X22.7500Y11.1560Z-1.4500F120.0
N11540G00X22.7500Y11.1560Z2.0000
N11550G00X22.7500Y5.1560Z2.0000
N11560G00X22.7500Y5.1560Z0.2000
N11570G1X22.7500Y5.1560Z-0.1813F120.0
N11580G00X22.7500Y5.1560Z0.2000
N11590G1X22.7500Y5.1560Z-0.3625F120.0
N11600G00X22.7500Y5.1560Z0.2000
N11610G1X22.7500Y5.1560Z-0.5438F120.0
N11620G00X22.7500Y5.1560Z0.2000
N11630G1X22.7500Y5.1560Z-0.7250F120.0
N11640G00X22.7500Y5.1560Z0.2000
N11650G1X22.7500Y5.1560Z-0.9063F120.0
N11660G00X22.7500Y5.1560Z0.2000
N11670G1X22.7500Y5.1560Z-1.0875F120.0
N11680G00X22.7500Y5.1560Z0.2000
N11690G1X22.7500Y5.1560Z-1.2688F120.0
N11700G00X22.7500Y5.1560Z0.2000
N11710G1X22.7500Y5.1560Z-1.4500F120.0
N11720G00X22.7500Y5.1560Z2.0000
N11730G00X28.7500Y5.1560Z2.0000
N11740G00X28.7500Y5.1560Z0.2000
N11750G1X28.7500Y5.1560Z-0.1813F120.0
N11760G00X28.7500Y5.1560Z0.2000
N11770G1X28.7500Y5.1560Z-0.3625F120.0
N11780G00X28.7500Y5.1560Z0.2000
N11790G1X28.7500Y5.1560Z-0.5438F120.0
N11800G00X28.7500Y5.1560Z0.2000
N11810G1X28.7500Y5.1560Z-0.7250F120.0
N11820G00X28.7500Y5.1560Z0.2000
N11830G1X28.7500Y5.1560Z-0.9063F120.0
N11840G00X28.7500Y5.1560Z0.2000
N11850G1X28.7500Y5.1560Z-1.0875F120.0
N11860G00X28.7500Y5.1560Z0.2000
N11870G1X28.7500Y5.1560Z-1.2688F120.0
N11880G00X28.7500Y5.1560Z0.2000
N11890G1X28.7500Y5.1560Z-1.4500F120.0
N11900G00X28.7500Y5.1560Z2.0000
N11910G00X28.7500Y11.1560Z2.0000
N11920G00X28.7500Y11.1560Z0.2000
N11930G1X28.7500Y11.1560Z-0.1813F120.0
N11940G00X28.7500Y11.1560Z0.2000
N11950G1X28.7500Y11.1560Z-0.3625F120.0
N11960G00X28.7500Y11.1560Z0.2000
N11970G1X28.7500Y11.1560Z-0.5438F120.0
N11980G00X28.7500Y11.1560Z0.2000
N11990G1X28.7500Y11.1560Z-0.7250F120.0
N12000G00X28.7500Y11.1560Z0.2000
N12010G1X28.7500Y11.1560Z-0.9063F120.0
N12020G00X28.7500Y11.1560Z0.2000
N12030G1X28.7500Y11.1560Z-1.0875F120.0
N12040G00X28.7500Y11.1560Z0.2000
N12050G1X28.7500Y11.1560Z-1.2688F120.0
N12060G00X28.7500Y11.1560Z0.2000
N12070G1X28.7500Y11.1560Z-1.4500F120.0
N12080G00X28.7500Y11.1560Z2.0000
N12090G00X28.7500Y17.1560Z2.0000
N12100G00X28.7500Y17.1560Z0.2000
N12110G1X28.7500Y17.1560Z-0.1813F120.0
N12120G00X28.7500Y17.1560Z0.2000
N12130G1X28.7500Y17.1560Z-0.3625F120.0
N12140G00X28.7500Y17.1560Z0.2000
N12150G1X28.7500Y17.1560Z-0.5438F120.0
N12160G00X28.7500Y17.1560Z0.2000
N12170G1X28.7500Y17.1560Z-0.7250F120.0
N12180G00X28.7500Y17.1560Z0.2000
N12190G1X28.7500Y17.1560Z-0.9063F120.0
N12200G00X28.7500Y17.1560Z0.2000
N12210G1X28.7500Y17.1560Z-1.0875F120.0
N12220G00X28.7500Y17.1560Z0.2000
N12230G1X28.7500Y17.1560Z-1.2688F120.0
N12240G00X28.7500Y17.1560Z0.2000
N12250G1X28.7500Y17.1560Z-1.4500F120.0
N12260G00X28.7500Y17.1560Z2.0000
N12270G00X28.7500Y23.1560Z2.0000
N12280G00X28.7500Y23.1560Z0.2000
N12290G1X28.7500Y23.1560Z-0.1813F120.0
N12300G00X28.7500Y23.1560Z0.2000
N12310G1X28.7500Y23.1560Z-0.3625F120.0
N12320G00X28.7500Y23.1560Z0.2000
N12330G1X28.7500Y23.1560Z-0.5438F120.0
N12340G00X28.7500Y23.1560Z0.2000
N12350G1X28.7500Y23.1560Z-0.7250F120.0
N12360G00X28.7500Y23.1560Z0.2000
N12370G1X28.7500Y23.1560Z-0.9063F120.0
N12380G00X28.7500Y23.1560Z0.2000
N12390G1X28.7500Y23.1560Z-1.0875F120.0
N12400G00X28.7500Y23.1560Z0.2000
N12410G1X28.7500Y23.1560Z-1.2688F120.0
N12420G00X28.7500Y23.1560Z0.2000
N12430G1X28.7500Y23.1560Z-1.4500F120.0
N12440G00X28.7500Y23.1560Z2.0000
N12450G00X28.7500Y29.1560Z2.0000
N12460G00X28.7500Y29.1560Z0.2000
N12470G1X28.7500Y29.1560Z-0.1813F120.0
N12480G00X28.7500Y29.1560Z0.2000
N12490G1X28.7500Y29.1560Z-0.3625F120.0
N12500G00X28.7500Y29.1560Z0.2000
N12510G1X28.7500Y29.1560Z-0.5438F120.0
N12520G00X28.7500Y29.1560Z0.2000
N12530G1X28.7500Y29.1560Z-0.7250F120.0
N12540G00X28.7500Y29.1560Z0.2000
N12550G1X28.7500Y29.1560Z-0.9063F120.0
N12560G00X28.7500Y29.1560Z0.2000
N12570G1X28.7500Y29.1560Z-1.0875F120.0
N12580G00X28.7500Y29.1560Z0.2000
N12590G1X28.7500Y29.1560Z-1.2688F120.0
N12600G00X28.7500Y29.1560Z0.2000
N12610G1X28.7500Y29.1560Z-1.4500F120.0
N12620G00X28.7500Y29.1560Z2.0000
N12630G00X28.7500Y35.1560Z2.0000
N12640G00X28.7500Y35.1560Z0.2000
N12650G1X28.7500Y35.1560Z-0.1813F120.0
N12660G00X28.7500Y35.1560Z0.2000
N12670G1X28.7500Y35.1560Z-0.3625F120.0
N12680G00X28.7500Y35.1560Z0.2000
N12690G1X28.7500Y35.1560Z-0.5438F120.0
N12700G00X28.7500Y35.1560Z0.2000
N12710G1X28.7500Y35.1560Z-0.7250F120.0
N12720G00X28.7500Y35.1560Z0.2000
N12730G1X28.7500Y35.1560Z-0.9063F120.0
N12740G00X28.7500Y35.1560Z0.2000
N12750G1X28.7500Y35.1560Z-1.0875F120.0
N12760G00X28.7500Y35.1560Z0.2000
N12770G1X28.7500Y35.1560Z-1.2688F120.0
N12780G00X28.7500Y35.1560Z0.2000
N12790G1X28.7500Y35.1560Z-1.4500F120.0
N12800G00X28.7500Y35.1560Z2.0000
N12810G00X28.7500Y41.1560Z2.0000
N12820G00X28.7500Y41.1560Z0.2000
N12830G1X28.7500Y41.1560Z-0.1813F120.0
N12840G00X28.7500Y41.1560Z0.2000
N12850G1X28.7500Y41.1560Z-0.3625F120.0
N12860G00X28.7500Y41.1560Z0.2000
N12870G1X28.7500Y41.1560Z-0.5438F120.0
N12880G00X28.7500Y41.1560Z0.2000
N12890G1X28.7500Y41.1560Z-0.7250F120.0
N12900G00X28.7500Y41.1560Z0.2000
N12910G1X28.7500Y41.1560Z-0.9063F120.0
N12920G00X28.7500Y41.1560Z0.2000
N12930G1X28.7500Y41.1560Z-1.0875F120.0
N12940G00X28.7500Y41.1560Z0.2000
N12950G1X28.7500Y41.1560Z-1.2688F120.0
N12960G00X28.7500Y41.1560Z0.2000
N12970G1X28.7500Y41.1560Z-1.4500F120.0
N12980G00X28.7500Y41.1560Z2.0000
N12990G00X28.7500Y47.1560Z2.0000
N13000G00X28.7500Y47.1560Z0.2000
N13010G1X28.7500Y47.1560Z-0.1813F120.0
N13020G00X28.7500Y47.1560Z0.2000
N13030G1X28.7500Y47.1560Z-0.3625F120.0
N13040G00X28.7500Y47.1560Z0.2000
N13050G1X28.7500Y47.1560Z-0.5438F120.0
N13060G00X28.7500Y47.1560Z0.2000
N13070G1X28.7500Y47.1560Z-0.7250F120.0
N13080G00X28.7500Y47.1560Z0.2000
N13090G1X28.7500Y47.1560Z-0.9063F120.0
N13100G00X28.7500Y47.1560Z0.2000
N13110G1X28.7500Y47.1560Z-1.0875F120.0
N13120G00X28.7500Y47.1560Z0.2000
N13130G1X28.7500Y47.1560Z-1.2688F120.0
N13140G00X28.7500Y47.1560Z0.2000
N13150G1X28.7500Y47.1560Z-1.4500F120.0
N13160G00X28.7500Y47.1560Z2.0000
N13170G00X28.7500Y53.1560Z2.0000
N13180G00X28.7500Y53.1560Z0.2000
N13190G1X28.7500Y53.1560Z-0.1813F120.0
N13200G00X28.7500Y53.1560Z0.2000
N13210G1X28.7500Y53.1560Z-0.3625F120.0
N13220G00X28.7500Y53.1560Z0.2000
N13230G1X28.7500Y53.1560Z-0.5438F120.0
N13240G00X28.7500Y53.1560Z0.2000
N13250G1X28.7500Y53.1560Z-0.7250F120.0
N13260G00X28.7500Y53.1560Z0.2000
N13270G1X28.7500Y53.1560Z-0.9063F120.0
N13280G00X28.7500Y53.1560Z0.2000
N13290G1X28.7500Y53.1560Z-1.0875F120.0
N13300G00X28.7500Y53.1560Z0.2000
N13310G1X28.7500Y53.1560Z-1.2688F120.0
N13320G00X28.7500Y53.1560Z0.2000
N13330G1X28.7500Y53.1560Z-1.4500F120.0
N13340G00X28.7500Y53.1560Z2.0000
N13350G00X28.7500Y59.1560Z2.0000
N13360G00X28.7500Y59.1560Z0.2000
N13370G1X28.7500Y59.1560Z-0.1813F120.0
N13380G00X28.7500Y59.1560Z0.2000
N13390G1X28.7500Y59.1560Z-0.3625F120.0
N13400G00X28.7500Y59.1560Z0.2000
N13410G1X28.7500Y59.1560Z-0.5438F120.0
N13420G00X28.7500Y59.1560Z0.2000
N13430G1X28.7500Y59.1560Z-0.7250F120.0
N13440G00X28.7500Y59.1560Z0.2000
N13450G1X28.7500Y59.1560Z-0.9063F120.0
N13460G00X28.7500Y59.1560Z0.2000
N13470G1X28.7500Y59.1560Z-1.0875F120.0
N13480G00X28.7500Y59.1560Z0.2000
N13490G1X28.7500Y59.1560Z-1.2688F120.0
N13500G00X28.7500Y59.1560Z0.2000
N13510G1X28.7500Y59.1560Z-1.4500F120.0
N13520G00X28.7500Y59.1560Z2.0000
N13530G00X28.7500Y65.1560Z2.0000
N13540G00X28.7500Y65.1560Z0.2000
N13550G1X28.7500Y65.1560Z-0.1813F120.0
N13560G00X28.7500Y65.1560Z0.2000
N13570G1X28.7500Y65.1560Z-0.3625F120.0
N13580G00X28.7500Y65.1560Z0.2000
N13590G1X28.7500Y65.1560Z-0.5438F120.0
N13600G00X28.7500Y65.1560Z0.2000
N13610G1X28.7500Y65.1560Z-0.7250F120.0
N13620G00X28.7500Y65.1560Z0.2000
N13630G1X28.7500Y65.1560Z-0.9063F120.0
N13640G00X28.7500Y65.1560Z0.2000
N13650G1X28.7500Y65.1560Z-1.0875F120.0
N13660G00X28.7500Y65.1560Z0.2000
N13670G1X28.7500Y65.1560Z-1.2688F120.0
N13680G00X28.7500Y65.1560Z0.2000
N13690G1X28.7500Y65.1560Z-1.4500F120.0
N13700G00X28.7500Y65.1560Z2.0000
N13710G00X28.7500Y71.1560Z2.0000
N13720G00X28.7500Y71.1560Z0.2000
N13730G1X28.7500Y71.1560Z-0.1813F120.0
N13740G00X28.7500Y71.1560Z0.2000
N13750G1X28.7500Y71.1560Z-0.3625F120.0
N13760G00X28.7500Y71.1560Z0.2000
N13770G1X28.7500Y71.1560Z-0.5438F120.0
N13780G00X28.7500Y71.1560Z0.2000
N13790G1X28.7500Y71.1560Z-0.7250F120.0
N13800G00X28.7500Y71.1560Z0.2000
N13810G1X28.7500Y71.1560Z-0.9063F120.0
N13820G00X28.7500Y71.1560Z0.2000
N13830G1X28.7500Y71.1560Z-1.0875F120.0
N13840G00X28.7500Y71.1560Z0.2000
N13850G1X28.7500Y71.1560Z-1.2688F120.0
N13860G00X28.7500Y71.1560Z0.2000
N13870G1X28.7500Y71.1560Z-1.4500F120.0
N13880G00X28.7500Y71.1560Z2.0000
N13890G00X28.7500Y77.1560Z2.0000
N13900G00X28.7500Y77.1560Z0.2000
N13910G1X28.7500Y77.1560Z-0.1813F120.0
N13920G00X28.7500Y77.1560Z0.2000
N13930G1X28.7500Y77.1560Z-0.3625F120.0
N13940G00X28.7500Y77.1560Z0.2000
N13950G1X28.7500Y77.1560Z-0.5438F120.0
N13960G00X28.7500Y77.1560Z0.2000
N13970G1X28.7500Y77.1560Z-0.7250F120.0
N13980G00X28.7500Y77.1560Z0.2000
N13990G1X28.7500Y77.1560Z-0.9063F120.0
N14000G00X28.7500Y77.1560Z0.2000
N14010G1X28.7500Y77.1560Z-1.0875F120.0
N14020G00X28.7500Y77.1560Z0.2000
N14030G1X28.7500Y77.1560Z-1.2688F120.0
N14040G00X28.7500Y77.1560Z0.2000
N14050G1X28.7500Y77.1560Z-1.4500F120.0
N14060G00X28.7500Y77.1560Z2.0000
N14070G00X28.7500Y83.1560Z2.0000
N14080G00X28.7500Y83.1560Z0.2000
N14090G1X28.7500Y83.1560Z-0.1813F120.0
N14100G00X28.7500Y83.1560Z0.2000
N14110G1X28.7500Y83.1560Z-0.3625F120.0
N14120G00X28.7500Y83.1560Z0.2000
N14130G1X28.7500Y83.1560Z-0.5438F120.0
N14140G00X28.7500Y83.1560Z0.2000
N14150G1X28.7500Y83.1560Z-0.7250F120.0
N14160G00X28.7500Y83.1560Z0.2000
N14170G1X28.7500Y83.1560Z-0.9063F120.0
N14180G00X28.7500Y83.1560Z0.2000
N14190G1X28.7500Y83.1560Z-1.0875F120.0
N14200G00X28.7500Y83.1560Z0.2000
N14210G1X28.7500Y83.1560Z-1.2688F120.0
N14220G00X28.7500Y83.1560Z0.2000
N14230G1X28.7500Y83.1560Z-1.4500F120.0
N14240G00X28.7500Y83.1560Z2.0000
N14250G00X28.7500Y89.1560Z2.0000
N14260G00X28.7500Y89.1560Z0.2000
N14270G1X28.7500Y89.1560Z-0.1813F120.0
N14280G00X28.7500Y89.1560Z0.2000
N14290G1X28.7500Y89.1560Z-0.3625F120.0
N14300G00X28.7500Y89.1560Z0.2000
N14310G1X28.7500Y89.1560Z-0.5438F120.0
N14320G00X28.7500Y89.1560Z0.2000
N14330G1X28.7500Y89.1560Z-0.7250F120.0
N14340G00X28.7500Y89.1560Z0.2000
N14350G1X28.7500Y89.1560Z-0.9063F120.0
N14360G00X28.7500Y89.1560Z0.2000
N14370G1X28.7500Y89.1560Z-1.0875F120.0
N14380G00X28.7500Y89.1560Z0.2000
N14390G1X28.7500Y89.1560Z-1.2688F120.0
N14400G00X28.7500Y89.1560Z0.2000
N14410G1X28.7500Y89.1560Z-1.4500F120.0
N14420G00X28.7500Y89.1560Z2.0000
N14430G00X28.7500Y95.1560Z2.0000
N14440G00X28.7500Y95.1560Z0.2000
N14450G1X28.7500Y95.1560Z-0.1813F120.0
N14460G00X28.7500Y95.1560Z0.2000
N14470G1X28.7500Y95.1560Z-0.3625F120.0
N14480G00X28.7500Y95.1560Z0.2000
N14490G1X28.7500Y95.1560Z-0.5438F120.0
N14500G00X28.7500Y95.1560Z0.2000
N14510G1X28.7500Y95.1560Z-0.7250F120.0
N14520G00X28.7500Y95.1560Z0.2000
N14530G1X28.7500Y95.1560Z-0.9063F120.0
N14540G00X28.7500Y95.1560Z0.2000
N14550G1X28.7500Y95.1560Z-1.0875F120.0
N14560G00X28.7500Y95.1560Z0.2000
N14570G1X28.7500Y95.1560Z-1.2688F120.0
N14580G00X28.7500Y95.1560Z0.2000
N14590G1X28.7500Y95.1560Z-1.4500F120.0
N14600G00X28.7500Y95.1560Z2.0000
N14610G00X34.7500Y95.1560Z2.0000
N14620G00X34.7500Y95.1560Z0.2000
N14630G1X34.7500Y95.1560Z-0.1813F120.0
N14640G00X34.7500Y95.1560Z0.2000
N14650G1X34.7500Y95.1560Z-0.3625F120.0
N14660G00X34.7500Y95.1560Z0.2000
N14670G1X34.7500Y95.1560Z-0.5438F120.0
N14680G00X34.7500Y95.1560Z0.2000
N14690G1X34.7500Y95.1560Z-0.7250F120.0
N14700G00X34.7500Y95.1560Z0.2000
N14710G1X34.7500Y95.1560Z-0.9063F120.0
N14720G00X34.7500Y95.1560Z0.2000
N14730G1X34.7500Y95.1560Z-1.0875F120.0
N14740G00X34.7500Y95.1560Z0.2000
N14750G1X34.7500Y95.1560Z-1.2688F120.0
N14760G00X34.7500Y95.1560Z0.2000
N14770G1X34.7500Y95.1560Z-1.4500F120.0
N14780G00X34.7500Y95.1560Z2.0000
N14790G00X34.7500Y89.1560Z2.0000
N14800G00X34.7500Y89.1560Z0.2000
N14810G1X34.7500Y89.1560Z-0.1813F120.0
N14820G00X34.7500Y89.1560Z0.2000
N14830G1X34.7500Y89.1560Z-0.3625F120.0
N14840G00X34.7500Y89.1560Z0.2000
N14850G1X34.7500Y89.1560Z-0.5438F120.0
N14860G00X34.7500Y89.1560Z0.2000
N14870G1X34.7500Y89.1560Z-0.7250F120.0
N14880G00X34.7500Y89.1560Z0.2000
N14890G1X34.7500Y89.1560Z-0.9063F120.0
N14900G00X34.7500Y89.1560Z0.2000
N14910G1X34.7500Y89.1560Z-1.0875F120.0
N14920G00X34.7500Y89.1560Z0.2000
N14930G1X34.7500Y89.1560Z-1.2688F120.0
N14940G00X34.7500Y89.1560Z0.2000
N14950G1X34.7500Y89.1560Z-1.4500F120.0
N14960G00X34.7500Y89.1560Z2.0000
N14970G00X34.7500Y83.1560Z2.0000
N14980G00X34.7500Y83.1560Z0.2000
N14990G1X34.7500Y83.1560Z-0.1813F120.0
N15000G00X34.7500Y83.1560Z0.2000
N15010G1X34.7500Y83.1560Z-0.3625F120.0
N15020G00X34.7500Y83.1560Z0.2000
N15030G1X34.7500Y83.1560Z-0.5438F120.0
N15040G00X34.7500Y83.1560Z0.2000
N15050G1X34.7500Y83.1560Z-0.7250F120.0
N15060G00X34.7500Y83.1560Z0.2000
N15070G1X34.7500Y83.1560Z-0.9063F120.0
N15080G00X34.7500Y83.1560Z0.2000
N15090G1X34.7500Y83.1560Z-1.0875F120.0
N15100G00X34.7500Y83.1560Z0.2000
N15110G1X34.7500Y83.1560Z-1.2688F120.0
N15120G00X34.7500Y83.1560Z0.2000
N15130G1X34.7500Y83.1560Z-1.4500F120.0
N15140G00X34.7500Y83.1560Z2.0000
N15150G00X34.7500Y77.1560Z2.0000
N15160G00X34.7500Y77.1560Z0.2000
N15170G1X34.7500Y77.1560Z-0.1813F120.0
N15180G00X34.7500Y77.1560Z0.2000
N15190G1X34.7500Y77.1560Z-0.3625F120.0
N15200G00X34.7500Y77.1560Z0.2000
N15210G1X34.7500Y77.1560Z-0.5438F120.0
N15220G00X34.7500Y77.1560Z0.2000
N15230G1X34.7500Y77.1560Z-0.7250F120.0
N15240G00X34.7500Y77.1560Z0.2000
N15250G1X34.7500Y77.1560Z-0.9063F120.0
N15260G00X34.7500Y77.1560Z0.2000
N15270G1X34.7500Y77.1560Z-1.0875F120.0
N15280G00X34.7500Y77.1560Z0.2000
N15290G1X34.7500Y77.1560Z-1.2688F120.0
N15300G00X34.7500Y77.1560Z0.2000
N15310G1X34.7500Y77.1560Z-1.4500F120.0
N15320G00X34.7500Y77.1560Z2.0000
N15330G00X34.7500Y71.1560Z2.0000
N15340G00X34.7500Y71.1560Z0.2000
N15350G1X34.7500Y71.1560Z-0.1813F120.0
N15360G00X34.7500Y71.1560Z0.2000
N15370G1X34.7500Y71.1560Z-0.3625F120.0
N15380G00X34.7500Y71.1560Z0.2000
N15390G1X34.7500Y71.1560Z-0.5438F120.0
N15400G00X34.7500Y71.1560Z0.2000
N15410G1X34.7500Y71.1560Z-0.7250F120.0
N15420G00X34.7500Y71.1560Z0.2000
N15430G1X34.7500Y71.1560Z-0.9063F120.0
N15440G00X34.7500Y71.1560Z0.2000
N15450G1X34.7500Y71.1560Z-1.0875F120.0
N15460G00X34.7500Y71.1560Z0.2000
N15470G1X34.7500Y71.1560Z-1.2688F120.0
N15480G00X34.7500Y71.1560Z0.2000
N15490G1X34.7500Y71.1560Z-1.4500F120.0
N15500G00X34.7500Y71.1560Z2.0000
N15510G00X34.7500Y65.1560Z2.0000
N15520G00X34.7500Y65.1560Z0.2000
N15530G1X34.7500Y65.1560Z-0.1813F120.0
N15540G00X34.7500Y65.1560Z0.2000
N15550G1X34.7500Y65.1560Z-0.3625F120.0
N15560G00X34.7500Y65.1560Z0.2000
N15570G1X34.7500Y65.1560Z-0.5438F120.0
N15580G00X34.7500Y65.1560Z0.2000
N15590G1X34.7500Y65.1560Z-0.7250F120.0
N15600G00X34.7500Y65.1560Z0.2000
N15610G1X34.7500Y65.1560Z-0.9063F120.0
N15620G00X34.7500Y65.1560Z0.2000
N15630G1X34.7500Y65.1560Z-1.0875F120.0
N15640G00X34.7500Y65.1560Z0.2000
N15650G1X34.7500Y65.1560Z-1.2688F120.0
N15660G00X34.7500Y65.1560Z0.2000
N15670G1X34.7500Y65.1560Z-1.4500F120.0
N15680G00X34.7500Y65.1560Z2.0000
N15690G00X34.7500Y59.1560Z2.0000
N15700G00X34.7500Y59.1560Z0.2000
N15710G1X34.7500Y59.1560Z-0.1813F120.0
N15720G00X34.7500Y59.1560Z0.2000
N15730G1X34.7500Y59.1560Z-0.3625F120.0
N15740G00X34.7500Y59.1560Z0.2000
N15750G1X34.7500Y59.1560Z-0.5438F120.0
N15760G00X34.7500Y59.1560Z0.2000
N15770G1X34.7500Y59.1560Z-0.7250F120.0
N15780G00X34.7500Y59.1560Z0.2000
N15790G1X34.7500Y59.1560Z-0.9063F120.0
N15800G00X34.7500Y59.1560Z0.2000
N15810G1X34.7500Y59.1560Z-1.0875F120.0
N15820G00X34.7500Y59.1560Z0.2000
N15830G1X34.7500Y59.1560Z-1.2688F120.0
N15840G00X34.7500Y59.1560Z0.2000
N15850G1X34.7500Y59.1560Z-1.4500F120.0
N15860G00X34.7500Y59.1560Z2.0000
N15870G00X34.7500Y53.1560Z2.0000
N15880G00X34.7500Y53.1560Z0.2000
N15890G1X34.7500Y53.1560Z-0.1813F120.0
N15900G00X34.7500Y53.1560Z0.2000
N15910G1X34.7500Y53.1560Z-0.3625F120.0
N15920G00X34.7500Y53.1560Z0.2000
N15930G1X34.7500Y53.1560Z-0.5438F120.0
N15940G00X34.7500Y53.1560Z0.2000
N15950G1X34.7500Y53.1560Z-0.7250F120.0
N15960G00X34.7500Y53.1560Z0.2000
N15970G1X34.7500Y53.1560Z-0.9063F120.0
N15980G00X34.7500Y53.1560Z0.2000
N15990G1X34.7500Y53.1560Z-1.0875F120.0
N16000G00X34.7500Y53.1560Z0.2000
N16010G1X34.7500Y53.1560Z-1.2688F120.0
N16020G00X34.7500Y53.1560Z0.2000
N16030G1X34.7500Y53.1560Z-1.4500F120.0
N16040G00X34.7500Y53.1560Z2.0000
N16050G00X34.7500Y47.1560Z2.0000
N16060G00X34.7500Y47.1560Z0.2000
N16070G1X34.7500Y47.1560Z-0.1813F120.0
N16080G00X34.7500Y47.1560Z0.2000
N16090G1X34.7500Y47.1560Z-0.3625F120.0
N16100G00X34.7500Y47.1560Z0.2000
N16110G1X34.7500Y47.1560Z-0.5438F120.0
N16120G00X34.7500Y47.1560Z0.2000
N16130G1X34.7500Y47.1560Z-0.7250F120.0
N16140G00X34.7500Y47.1560Z0.2000
N16150G1X34.7500Y47.1560Z-0.9063F120.0
N16160G00X34.7500Y47.1560Z0.2000
N16170G1X34.7500Y47.1560Z-1.0875F120.0
N16180G00X34.7500Y47.1560Z0.2000
N16190G1X34.7500Y47.1560Z-1.2688F120.0
N16200G00X34.7500Y47.1560Z0.2000
N16210G1X34.7500Y47.1560Z-1.4500F120.0
N16220G00X34.7500Y47.1560Z2.0000
N16230G00X34.7500Y41.1560Z2.0000
N16240G00X34.7500Y41.1560Z0.2000
N16250G1X34.7500Y41.1560Z-0.1813F120.0
N16260G00X34.7500Y41.1560Z0.2000
N16270G1X34.7500Y41.1560Z-0.3625F120.0
N16280G00X34.7500Y41.1560Z0.2000
N16290G1X34.7500Y41.1560Z-0.5438F120.0
N16300G00X34.7500Y41.1560Z0.2000
N16310G1X34.7500Y41.1560Z-0.7250F120.0
N16320G00X34.7500Y41.1560Z0.2000
N16330G1X34.7500Y41.1560Z-0.9063F120.0
N16340G00X34.7500Y41.1560Z0.2000
N16350G1X34.7500Y41.1560Z-1.0875F120.0
N16360G00X34.7500Y41.1560Z0.2000
N16370G1X34.7500Y41.1560Z-1.2688F120.0
N16380G00X34.7500Y41.1560Z0.2000
N16390G1X34.7500Y41.1560Z-1.4500F120.0
N16400G00X34.7500Y41.1560Z2.0000
N16410G00X34.7500Y35.1560Z2.0000
N16420G00X34.7500Y35.1560Z0.2000
N16430G1X34.7500Y35.1560Z-0.1813F120.0
N16440G00X34.7500Y35.1560Z0.2000
N16450G1X34.7500Y35.1560Z-0.3625F120.0
N16460G00X34.7500Y35.1560Z0.2000
N16470G1X34.7500Y35.1560Z-0.5438F120.0
N16480G00X34.7500Y35.1560Z0.2000
N16490G1X34.7500Y35.1560Z-0.7250F120.0
N16500G00X34.7500Y35.1560Z0.2000
N16510G1X34.7500Y35.1560Z-0.9063F120.0
N16520G00X34.7500Y35.1560Z0.2000
N16530G1X34.7500Y35.1560Z-1.0875F120.0
N16540G00X34.7500Y35.1560Z0.2000
N16550G1X34.7500Y35.1560Z-1.2688F120.0
N16560G00X34.7500Y35.1560Z0.2000
N16570G1X34.7500Y35.1560Z-1.4500F120.0
N16580G00X34.7500Y35.1560Z2.0000
N16590G00X34.7500Y29.1560Z2.0000
N16600G00X34.7500Y29.1560Z0.2000
N16610G1X34.7500Y29.1560Z-0.1813F120.0
N16620G00X34.7500Y29.1560Z0.2000
N16630G1X34.7500Y29.1560Z-0.3625F120.0
N16640G00X34.7500Y29.1560Z0.2000
N16650G1X34.7500Y29.1560Z-0.5438F120.0
N16660G00X34.7500Y29.1560Z0.2000
N16670G1X34.7500Y29.1560Z-0.7250F120.0
N16680G00X34.7500Y29.1560Z0.2000
N16690G1X34.7500Y29.1560Z-0.9063F120.0
N16700G00X34.7500Y29.1560Z0.2000
N16710G1X34.7500Y29.1560Z-1.0875F120.0
N16720G00X34.7500Y29.1560Z0.2000
N16730G1X34.7500Y29.1560Z-1.2688F120.0
N16740G00X34.7500Y29.1560Z0.2000
N16750G1X34.7500Y29.1560Z-1.4500F120.0
N16760G00X34.7500Y29.1560Z2.0000
N16770G00X34.7500Y23.1560Z2.0000
N16780G00X34.7500Y23.1560Z0.2000
N16790G1X34.7500Y23.1560Z-0.1813F120.0
N16800G00X34.7500Y23.1560Z0.2000
N16810G1X34.7500Y23.1560Z-0.3625F120.0
N16820G00X34.7500Y23.1560Z0.2000
N16830G1X34.7500Y23.1560Z-0.5438F120.0
N16840G00X34.7500Y23.1560Z0.2000
N16850G1X34.7500Y23.1560Z-0.7250F120.0
N16860G00X34.7500Y23.1560Z0.2000
N16870G1X34.7500Y23.1560Z-0.9063F120.0
N16880G00X34.7500Y23.1560Z0.2000
N16890G1X34.7500Y23.1560Z-1.0875F120.0
N16900G00X34.7500Y23.1560Z0.2000
N16910G1X34.7500Y23.1560Z-1.2688F120.0
N16920G00X34.7500Y23.1560Z0.2000
N16930G1X34.7500Y23.1560Z-1.4500F120.0
N16940G00X34.7500Y23.1560Z2.0000
N16950G00X34.7500Y17.1560Z2.0000
N16960G00X34.7500Y17.1560Z0.2000
N16970G1X34.7500Y17.1560Z-0.1813F120.0
N16980G00X34.7500Y17.1560Z0.2000
N16990G1X34.7500Y17.1560Z-0.3625F120.0
N17000G00X34.7500Y17.1560Z0.2000
N17010G1X34.7500Y17.1560Z-0.5438F120.0
N17020G00X34.7500Y17.1560Z0.2000
N17030G1X34.7500Y17.1560Z-0.7250F120.0
N17040G00X34.7500Y17.1560Z0.2000
N17050G1X34.7500Y17.1560Z-0.9063F120.0
N17060G00X34.7500Y17.1560Z0.2000
N17070G1X34.7500Y17.1560Z-1.0875F120.0
N17080G00X34.7500Y17.1560Z0.2000
N17090G1X34.7500Y17.1560Z-1.2688F120.0
N17100G00X34.7500Y17.1560Z0.2000
N17110G1X34.7500Y17.1560Z-1.4500F120.0
N17120G00X34.7500Y17.1560Z2.0000
N17130G00X34.7500Y11.1560Z2.0000
N17140G00X34.7500Y11.1560Z0.2000
N17150G1X34.7500Y11.1560Z-0.1813F120.0
N17160G00X34.7500Y11.1560Z0.2000
N17170G1X34.7500Y11.1560Z-0.3625F120.0
N17180G00X34.7500Y11.1560Z0.2000
N17190G1X34.7500Y11.1560Z-0.5438F120.0
N17200G00X34.7500Y11.1560Z0.2000
N17210G1X34.7500Y11.1560Z-0.7250F120.0
N17220G00X34.7500Y11.1560Z0.2000
N17230G1X34.7500Y11.1560Z-0.9063F120.0
N17240G00X34.7500Y11.1560Z0.2000
N17250G1X34.7500Y11.1560Z-1.0875F120.0
N17260G00X34.7500Y11.1560Z0.2000
N17270G1X34.7500Y11.1560Z-1.2688F120.0
N17280G00X34.7500Y11.1560Z0.2000
N17290G1X34.7500Y11.1560Z-1.4500F120.0
N17300G00X34.7500Y11.1560Z2.0000
N17310G00X34.7500Y5.1560Z2.0000
N17320G00X34.7500Y5.1560Z0.2000
N17330G1X34.7500Y5.1560Z-0.1813F120.0
N17340G00X34.7500Y5.1560Z0.2000
N17350G1X34.7500Y5.1560Z-0.3625F120.0
N17360G00X34.7500Y5.1560Z0.2000
N17370G1X34.7500Y5.1560Z-0.5438F120.0
N17380G00X34.7500Y5.1560Z0.2000
N17390G1X34.7500Y5.1560Z-0.7250F120.0
N17400G00X34.7500Y5.1560Z0.2000
N17410G1X34.7500Y5.1560Z-0.9063F120.0
N17420G00X34.7500Y5.1560Z0.2000
N17430G1X34.7500Y5.1560Z-1.0875F120.0
N17440G00X34.7500Y5.1560Z0.2000
N17450G1X34.7500Y5.1560Z-1.2688F120.0
N17460G00X34.7500Y5.1560Z0.2000
N17470G1X34.7500Y5.1560Z-1.4500F120.0
N17480G00X34.7500Y5.1560Z2.0000
N17490G00X40.7500Y5.1560Z2.0000
N17500G00X40.7500Y5.1560Z0.2000
N17510G1X40.7500Y5.1560Z-0.1813F120.0
N17520G00X40.7500Y5.1560Z0.2000
N17530G1X40.7500Y5.1560Z-0.3625F120.0
N17540G00X40.7500Y5.1560Z0.2000
N17550G1X40.7500Y5.1560Z-0.5438F120.0
N17560G00X40.7500Y5.1560Z0.2000
N17570G1X40.7500Y5.1560Z-0.7250F120.0
N17580G00X40.7500Y5.1560Z0.2000
N17590G1X40.7500Y5.1560Z-0.9063F120.0
N17600G00X40.7500Y5.1560Z0.2000
N17610G1X40.7500Y5.1560Z-1.0875F120.0
N17620G00X40.7500Y5.1560Z0.2000
N17630G1X40.7500Y5.1560Z-1.2688F120.0
N17640G00X40.7500Y5.1560Z0.2000
N17650G1X40.7500Y5.1560Z-1.4500F120.0
N17660G00X40.7500Y5.1560Z2.0000
N17670G00X40.7500Y11.1560Z2.0000
N17680G00X40.7500Y11.1560Z0.2000
N17690G1X40.7500Y11.1560Z-0.1813F120.0
N17700G00X40.7500Y11.1560Z0.2000
N17710G1X40.7500Y11.1560Z-0.3625F120.0
N17720G00X40.7500Y11.1560Z0.2000
N17730G1X40.7500Y11.1560Z-0.5438F120.0
N17740G00X40.7500Y11.1560Z0.2000
N17750G1X40.7500Y11.1560Z-0.7250F120.0
N17760G00X40.7500Y11.1560Z0.2000
N17770G1X40.7500Y11.1560Z-0.9063F120.0
N17780G00X40.7500Y11.1560Z0.2000
N17790G1X40.7500Y11.1560Z-1.0875F120.0
N17800G00X40.7500Y11.1560Z0.2000
N17810G1X40.7500Y11.1560Z-1.2688F120.0
N17820G00X40.7500Y11.1560Z0.2000
N17830G1X40.7500Y11.1560Z-1.4500F120.0
N17840G00X40.7500Y11.1560Z2.0000
N17850G00X40.7500Y17.1560Z2.0000
N17860G00X40.7500Y17.1560Z0.2000
N17870G1X40.7500Y17.1560Z-0.1813F120.0
N17880G00X40.7500Y17.1560Z0.2000
N17890G1X40.7500Y17.1560Z-0.3625F120.0
N17900G00X40.7500Y17.1560Z0.2000
N17910G1X40.7500Y17.1560Z-0.5438F120.0
N17920G00X40.7500Y17.1560Z0.2000
N17930G1X40.7500Y17.1560Z-0.7250F120.0
N17940G00X40.7500Y17.1560Z0.2000
N17950G1X40.7500Y17.1560Z-0.9063F120.0
N17960G00X40.7500Y17.1560Z0.2000
N17970G1X40.7500Y17.1560Z-1.0875F120.0
N17980G00X40.7500Y17.1560Z0.2000
N17990G1X40.7500Y17.1560Z-1.2688F120.0
N18000G00X40.7500Y17.1560Z0.2000
N18010G1X40.7500Y17.1560Z-1.4500F120.0
N18020G00X40.7500Y17.1560Z2.0000
N18030G00X40.7500Y23.1560Z2.0000
N18040G00X40.7500Y23.1560Z0.2000
N18050G1X40.7500Y23.1560Z-0.1813F120.0
N18060G00X40.7500Y23.1560Z0.2000
N18070G1X40.7500Y23.1560Z-0.3625F120.0
N18080G00X40.7500Y23.1560Z0.2000
N18090G1X40.7500Y23.1560Z-0.5438F120.0
N18100G00X40.7500Y23.1560Z0.2000
N18110G1X40.7500Y23.1560Z-0.7250F120.0
N18120G00X40.7500Y23.1560Z0.2000
N18130G1X40.7500Y23.1560Z-0.9063F120.0
N18140G00X40.7500Y23.1560Z0.2000
N18150G1X40.7500Y23.1560Z-1.0875F120.0
N18160G00X40.7500Y23.1560Z0.2000
N18170G1X40.7500Y23.1560Z-1.2688F120.0
N18180G00X40.7500Y23.1560Z0.2000
N18190G1X40.7500Y23.1560Z-1.4500F120.0
N18200G00X40.7500Y23.1560Z2.0000
N18210G00X40.7500Y29.1560Z2.0000
N18220G00X40.7500Y29.1560Z0.2000
N18230G1X40.7500Y29.1560Z-0.1813F120.0
N18240G00X40.7500Y29.1560Z0.2000
N18250G1X40.7500Y29.1560Z-0.3625F120.0
N18260G00X40.7500Y29.1560Z0.2000
N18270G1X40.7500Y29.1560Z-0.5438F120.0
N18280G00X40.7500Y29.1560Z0.2000
N18290G1X40.7500Y29.1560Z-0.7250F120.0
N18300G00X40.7500Y29.1560Z0.2000
N18310G1X40.7500Y29.1560Z-0.9063F120.0
N18320G00X40.7500Y29.1560Z0.2000
N18330G1X40.7500Y29.1560Z-1.0875F120.0
N18340G00X40.7500Y29.1560Z0.2000
N18350G1X40.7500Y29.1560Z-1.2688F120.0
N18360G00X40.7500Y29.1560Z0.2000
N18370G1X40.7500Y29.1560Z-1.4500F120.0
N18380G00X40.7500Y29.1560Z2.0000
N18390G00X40.7500Y35.1560Z2.0000
N18400G00X40.7500Y35.1560Z0.2000
N18410G1X40.7500Y35.1560Z-0.1813F120.0
N18420G00X40.7500Y35.1560Z0.2000
N18430G1X40.7500Y35.1560Z-0.3625F120.0
N18440G00X40.7500Y35.1560Z0.2000
N18450G1X40.7500Y35.1560Z-0.5438F120.0
N18460G00X40.7500Y35.1560Z0.2000
N18470G1X40.7500Y35.1560Z-0.7250F120.0
N18480G00X40.7500Y35.1560Z0.2000
N18490G1X40.7500Y35.1560Z-0.9063F120.0
N18500G00X40.7500Y35.1560Z0.2000
N18510G1X40.7500Y35.1560Z-1.0875F120.0
N18520G00X40.7500Y35.1560Z0.2000
N18530G1X40.7500Y35.1560Z-1.2688F120.0
N18540G00X40.7500Y35.1560Z0.2000
N18550G1X40.7500Y35.1560Z-1.4500F120.0
N18560G00X40.7500Y35.1560Z2.0000
N18570G00X40.7500Y41.1560Z2.0000
N18580G00X40.7500Y41.1560Z0.2000
N18590G1X40.7500Y41.1560Z-0.1813F120.0
N18600G00X40.7500Y41.1560Z0.2000
N18610G1X40.7500Y41.1560Z-0.3625F120.0
N18620G00X40.7500Y41.1560Z0.2000
N18630G1X40.7500Y41.1560Z-0.5438F120.0
N18640G00X40.7500Y41.1560Z0.2000
N18650G1X40.7500Y41.1560Z-0.7250F120.0
N18660G00X40.7500Y41.1560Z0.2000
N18670G1X40.7500Y41.1560Z-0.9063F120.0
N18680G00X40.7500Y41.1560Z0.2000
N18690G1X40.7500Y41.1560Z-1.0875F120.0
N18700G00X40.7500Y41.1560Z0.2000
N18710G1X40.7500Y41.1560Z-1.2688F120.0
N18720G00X40.7500Y41.1560Z0.2000
N18730G1X40.7500Y41.1560Z-1.4500F120.0
N18740G00X40.7500Y41.1560Z2.0000
N18750G00X40.7500Y47.1560Z2.0000
N18760G00X40.7500Y47.1560Z0.2000
N18770G1X40.7500Y47.1560Z-0.1813F120.0
N18780G00X40.7500Y47.1560Z0.2000
N18790G1X40.7500Y47.1560Z-0.3625F120.0
N18800G00X40.7500Y47.1560Z0.2000
N18810G1X40.7500Y47.1560Z-0.5438F120.0
N18820G00X40.7500Y47.1560Z0.2000
N18830G1X40.7500Y47.1560Z-0.7250F120.0
N18840G00X40.7500Y47.1560Z0.2000
N18850G1X40.7500Y47.1560Z-0.9063F120.0
N18860G00X40.7500Y47.1560Z0.2000
N18870G1X40.7500Y47.1560Z-1.0875F120.0
N18880G00X40.7500Y47.1560Z0.2000
N18890G1X40.7500Y47.1560Z-1.2688F120.0
N18900G00X40.7500Y47.1560Z0.2000
N18910G1X40.7500Y47.1560Z-1.4500F120.0
N18920G00X40.7500Y47.1560Z2.0000
N18930G00X40.7500Y53.1560Z2.0000
N18940G00X40.7500Y53.1560Z0.2000
N18950G1X40.7500Y53.1560Z-0.1813F120.0
N18960G00X40.7500Y53.1560Z0.2000
N18970G1X40.7500Y53.1560Z-0.3625F120.0
N18980G00X40.7500Y53.1560Z0.2000
N18990G1X40.7500Y53.1560Z-0.5438F120.0
N19000G00X40.7500Y53.1560Z0.2000
N19010G1X40.7500Y53.1560Z-0.7250F120.0
N19020G00X40.7500Y53.1560Z0.2000
N19030G1X40.7500Y53.1560Z-0.9063F120.0
N19040G00X40.7500Y53.1560Z0.2000
N19050G1X40.7500Y53.1560Z-1.0875F120.0
N19060G00X40.7500Y53.1560Z0.2000
N19070G1X40.7500Y53.1560Z-1.2688F120.0
N19080G00X40.7500Y53.1560Z0.2000
N19090G1X40.7500Y53.1560Z-1.4500F120.0
N19100G00X40.7500Y53.1560Z2.0000
N19110G00X40.7500Y59.1560Z2.0000
N19120G00X40.7500Y59.1560Z0.2000
N19130G1X40.7500Y59.1560Z-0.1813F120.0
N19140G00X40.7500Y59.1560Z0.2000
N19150G1X40.7500Y59.1560Z-0.3625F120.0
N19160G00X40.7500Y59.1560Z0.2000
N19170G1X40.7500Y59.1560Z-0.5438F120.0
N19180G00X40.7500Y59.1560Z0.2000
N19190G1X40.7500Y59.1560Z-0.7250F120.0
N19200G00X40.7500Y59.1560Z0.2000
N19210G1X40.7500Y59.1560Z-0.9063F120.0
N19220G00X40.7500Y59.1560Z0.2000
N19230G1X40.7500Y59.1560Z-1.0875F120.0
N19240G00X40.7500Y59.1560Z0.2000
N19250G1X40.7500Y59.1560Z-1.2688F120.0
N19260G00X40.7500Y59.1560Z0.2000
N19270G1X40.7500Y59.1560Z-1.4500F120.0
N19280G00X40.7500Y59.1560Z2.0000
N19290G00X40.7500Y65.1560Z2.0000
N19300G00X40.7500Y65.1560Z0.2000
N19310G1X40.7500Y65.1560Z-0.1813F120.0
N19320G00X40.7500Y65.1560Z0.2000
N19330G1X40.7500Y65.1560Z-0.3625F120.0
N19340G00X40.7500Y65.1560Z0.2000
N19350G1X40.7500Y65.1560Z-0.5438F120.0
N19360G00X40.7500Y65.1560Z0.2000
N19370G1X40.7500Y65.1560Z-0.7250F120.0
N19380G00X40.7500Y65.1560Z0.2000
N19390G1X40.7500Y65.1560Z-0.9063F120.0
N19400G00X40.7500Y65.1560Z0.2000
N19410G1X40.7500Y65.1560Z-1.0875F120.0
N19420G00X40.7500Y65.1560Z0.2000
N19430G1X40.7500Y65.1560Z-1.2688F120.0
N19440G00X40.7500Y65.1560Z0.2000
N19450G1X40.7500Y65.1560Z-1.4500F120.0
N19460G00X40.7500Y65.1560Z2.0000
N19470G00X40.7500Y71.1560Z2.0000
N19480G00X40.7500Y71.1560Z0.2000
N19490G1X40.7500Y71.1560Z-0.1813F120.0
N19500G00X40.7500Y71.1560Z0.2000
N19510G1X40.7500Y71.1560Z-0.3625F120.0
N19520G00X40.7500Y71.1560Z0.2000
N19530G1X40.7500Y71.1560Z-0.5438F120.0
N19540G00X40.7500Y71.1560Z0.2000
N19550G1X40.7500Y71.1560Z-0.7250F120.0
N19560G00X40.7500Y71.1560Z0.2000
N19570G1X40.7500Y71.1560Z-0.9063F120.0
N19580G00X40.7500Y71.1560Z0.2000
N19590G1X40.7500Y71.1560Z-1.0875F120.0
N19600G00X40.7500Y71.1560Z0.2000
N19610G1X40.7500Y71.1560Z-1.2688F120.0
N19620G00X40.7500Y71.1560Z0.2000
N19630G1X40.7500Y71.1560Z-1.4500F120.0
N19640G00X40.7500Y71.1560Z2.0000
N19650G00X40.7500Y77.1560Z2.0000
N19660G00X40.7500Y77.1560Z0.2000
N19670G1X40.7500Y77.1560Z-0.1813F120.0
N19680G00X40.7500Y77.1560Z0.2000
N19690G1X40.7500Y77.1560Z-0.3625F120.0
N19700G00X40.7500Y77.1560Z0.2000
N19710G1X40.7500Y77.1560Z-0.5438F120.0
N19720G00X40.7500Y77.1560Z0.2000
N19730G1X40.7500Y77.1560Z-0.7250F120.0
N19740G00X40.7500Y77.1560Z0.2000
N19750G1X40.7500Y77.1560Z-0.9063F120.0
N19760G00X40.7500Y77.1560Z0.2000
N19770G1X40.7500Y77.1560Z-1.0875F120.0
N19780G00X40.7500Y77.1560Z0.2000
N19790G1X40.7500Y77.1560Z-1.2688F120.0
N19800G00X40.7500Y77.1560Z0.2000
N19810G1X40.7500Y77.1560Z-1.4500F120.0
N19820G00X40.7500Y77.1560Z2.0000
N19830G00X40.7500Y83.1560Z2.0000
N19840G00X40.7500Y83.1560Z0.2000
N19850G1X40.7500Y83.1560Z-0.1813F120.0
N19860G00X40.7500Y83.1560Z0.2000
N19870G1X40.7500Y83.1560Z-0.3625F120.0
N19880G00X40.7500Y83.1560Z0.2000
N19890G1X40.7500Y83.1560Z-0.5438F120.0
N19900G00X40.7500Y83.1560Z0.2000
N19910G1X40.7500Y83.1560Z-0.7250F120.0
N19920G00X40.7500Y83.1560Z0.2000
N19930G1X40.7500Y83.1560Z-0.9063F120.0
N19940G00X40.7500Y83.1560Z0.2000
N19950G1X40.7500Y83.1560Z-1.0875F120.0
N19960G00X40.7500Y83.1560Z0.2000
N19970G1X40.7500Y83.1560Z-1.2688F120.0
N19980G00X40.7500Y83.1560Z0.2000
N19990G1X40.7500Y83.1560Z-1.4500F120.0
N20000G00X40.7500Y83.1560Z2.0000
N20010G00X40.7500Y89.1560Z2.0000
N20020G00X40.7500Y89.1560Z0.2000
N20030G1X40.7500Y89.1560Z-0.1813F120.0
N20040G00X40.7500Y89.1560Z0.2000
N20050G1X40.7500Y89.1560Z-0.3625F120.0
N20060G00X40.7500Y89.1560Z0.2000
N20070G1X40.7500Y89.1560Z-0.5438F120.0
N20080G00X40.7500Y89.1560Z0.2000
N20090G1X40.7500Y89.1560Z-0.7250F120.0
N20100G00X40.7500Y89.1560Z0.2000
N20110G1X40.7500Y89.1560Z-0.9063F120.0
N20120G00X40.7500Y89.1560Z0.2000
N20130G1X40.7500Y89.1560Z-1.0875F120.0
N20140G00X40.7500Y89.1560Z0.2000
N20150G1X40.7500Y89.1560Z-1.2688F120.0
N20160G00X40.7500Y89.1560Z0.2000
N20170G1X40.7500Y89.1560Z-1.4500F120.0
N20180G00X40.7500Y89.1560Z2.0000
N20190G00X40.7500Y95.1560Z2.0000
N20200G00X40.7500Y95.1560Z0.2000
N20210G1X40.7500Y95.1560Z-0.1813F120.0
N20220G00X40.7500Y95.1560Z0.2000
N20230G1X40.7500Y95.1560Z-0.3625F120.0
N20240G00X40.7500Y95.1560Z0.2000
N20250G1X40.7500Y95.1560Z-0.5438F120.0
N20260G00X40.7500Y95.1560Z0.2000
N20270G1X40.7500Y95.1560Z-0.7250F120.0
N20280G00X40.7500Y95.1560Z0.2000
N20290G1X40.7500Y95.1560Z-0.9063F120.0
N20300G00X40.7500Y95.1560Z0.2000
N20310G1X40.7500Y95.1560Z-1.0875F120.0
N20320G00X40.7500Y95.1560Z0.2000
N20330G1X40.7500Y95.1560Z-1.2688F120.0
N20340G00X40.7500Y95.1560Z0.2000
N20350G1X40.7500Y95.1560Z-1.4500F120.0
N20360G00X40.7500Y95.1560Z2.0000
N20370G00X46.7500Y95.1560Z2.0000
N20380G00X46.7500Y95.1560Z0.2000
N20390G1X46.7500Y95.1560Z-0.1813F120.0
N20400G00X46.7500Y95.1560Z0.2000
N20410G1X46.7500Y95.1560Z-0.3625F120.0
N20420G00X46.7500Y95.1560Z0.2000
N20430G1X46.7500Y95.1560Z-0.5438F120.0
N20440G00X46.7500Y95.1560Z0.2000
N20450G1X46.7500Y95.1560Z-0.7250F120.0
N20460G00X46.7500Y95.1560Z0.2000
N20470G1X46.7500Y95.1560Z-0.9063F120.0
N20480G00X46.7500Y95.1560Z0.2000
N20490G1X46.7500Y95.1560Z-1.0875F120.0
N20500G00X46.7500Y95.1560Z0.2000
N20510G1X46.7500Y95.1560Z-1.2688F120.0
N20520G00X46.7500Y95.1560Z0.2000
N20530G1X46.7500Y95.1560Z-1.4500F120.0
N20540G00X46.7500Y95.1560Z2.0000
N20550G00X46.7500Y89.1560Z2.0000
N20560G00X46.7500Y89.1560Z0.2000
N20570G1X46.7500Y89.1560Z-0.1813F120.0
N20580G00X46.7500Y89.1560Z0.2000
N20590G1X46.7500Y89.1560Z-0.3625F120.0
N20600G00X46.7500Y89.1560Z0.2000
N20610G1X46.7500Y89.1560Z-0.5438F120.0
N20620G00X46.7500Y89.1560Z0.2000
N20630G1X46.7500Y89.1560Z-0.7250F120.0
N20640G00X46.7500Y89.1560Z0.2000
N20650G1X46.7500Y89.1560Z-0.9063F120.0
N20660G00X46.7500Y89.1560Z0.2000
N20670G1X46.7500Y89.1560Z-1.0875F120.0
N20680G00X46.7500Y89.1560Z0.2000
N20690G1X46.7500Y89.1560Z-1.2688F120.0
N20700G00X46.7500Y89.1560Z0.2000
N20710G1X46.7500Y89.1560Z-1.4500F120.0
N20720G00X46.7500Y89.1560Z2.0000
N20730G00X46.7500Y83.1560Z2.0000
N20740G00X46.7500Y83.1560Z0.2000
N20750G1X46.7500Y83.1560Z-0.1813F120.0
N20760G00X46.7500Y83.1560Z0.2000
N20770G1X46.7500Y83.1560Z-0.3625F120.0
N20780G00X46.7500Y83.1560Z0.2000
N20790G1X46.7500Y83.1560Z-0.5438F120.0
N20800G00X46.7500Y83.1560Z0.2000
N20810G1X46.7500Y83.1560Z-0.7250F120.0
N20820G00X46.7500Y83.1560Z0.2000
N20830G1X46.7500Y83.1560Z-0.9063F120.0
N20840G00X46.7500Y83.1560Z0.2000
N20850G1X46.7500Y83.1560Z-1.0875F120.0
N20860G00X46.7500Y83.1560Z0.2000
N20870G1X46.7500Y83.1560Z-1.2688F120.0
N20880G00X46.7500Y83.1560Z0.2000
N20890G1X46.7500Y83.1560Z-1.4500F120.0
N20900G00X46.7500Y83.1560Z2.0000
N20910G00X46.7500Y77.1560Z2.0000
N20920G00X46.7500Y77.1560Z0.2000
N20930G1X46.7500Y77.1560Z-0.1813F120.0
N20940G00X46.7500Y77.1560Z0.2000
N20950G1X46.7500Y77.1560Z-0.3625F120.0
N20960G00X46.7500Y77.1560Z0.2000
N20970G1X46.7500Y77.1560Z-0.5438F120.0
N20980G00X46.7500Y77.1560Z0.2000
N20990G1X46.7500Y77.1560Z-0.7250F120.0
N21000G00X46.7500Y77.1560Z0.2000
N21010G1X46.7500Y77.1560Z-0.9063F120.0
N21020G00X46.7500Y77.1560Z0.2000
N21030G1X46.7500Y77.1560Z-1.0875F120.0
N21040G00X46.7500Y77.1560Z0.2000
N21050G1X46.7500Y77.1560Z-1.2688F120.0
N21060G00X46.7500Y77.1560Z0.2000
N21070G1X46.7500Y77.1560Z-1.4500F120.0
N21080G00X46.7500Y77.1560Z2.0000
N21090G00X46.7500Y71.1560Z2.0000
N21100G00X46.7500Y71.1560Z0.2000
N21110G1X46.7500Y71.1560Z-0.1813F120.0
N21120G00X46.7500Y71.1560Z0.2000
N21130G1X46.7500Y71.1560Z-0.3625F120.0
N21140G00X46.7500Y71.1560Z0.2000
N21150G1X46.7500Y71.1560Z-0.5438F120.0
N21160G00X46.7500Y71.1560Z0.2000
N21170G1X46.7500Y71.1560Z-0.7250F120.0
N21180G00X46.7500Y71.1560Z0.2000
N21190G1X46.7500Y71.1560Z-0.9063F120.0
N21200G00X46.7500Y71.1560Z0.2000
N21210G1X46.7500Y71.1560Z-1.0875F120.0
N21220G00X46.7500Y71.1560Z0.2000
N21230G1X46.7500Y71.1560Z-1.2688F120.0
N21240G00X46.7500Y71.1560Z0.2000
N21250G1X46.7500Y71.1560Z-1.4500F120.0
N21260G00X46.7500Y71.1560Z2.0000
N21270G00X46.7500Y65.1560Z2.0000
N21280G00X46.7500Y65.1560Z0.2000
N21290G1X46.7500Y65.1560Z-0.1813F120.0
N21300G00X46.7500Y65.1560Z0.2000
N21310G1X46.7500Y65.1560Z-0.3625F120.0
N21320G00X46.7500Y65.1560Z0.2000
N21330G1X46.7500Y65.1560Z-0.5438F120.0
N21340G00X46.7500Y65.1560Z0.2000
N21350G1X46.7500Y65.1560Z-0.7250F120.0
N21360G00X46.7500Y65.1560Z0.2000
N21370G1X46.7500Y65.1560Z-0.9063F120.0
N21380G00X46.7500Y65.1560Z0.2000
N21390G1X46.7500Y65.1560Z-1.0875F120.0
N21400G00X46.7500Y65.1560Z0.2000
N21410G1X46.7500Y65.1560Z-1.2688F120.0
N21420G00X46.7500Y65.1560Z0.2000
N21430G1X46.7500Y65.1560Z-1.4500F120.0
N21440G00X46.7500Y65.1560Z2.0000
N21450G00X46.7500Y59.1560Z2.0000
N21460G00X46.7500Y59.1560Z0.2000
N21470G1X46.7500Y59.1560Z-0.1813F120.0
N21480G00X46.7500Y59.1560Z0.2000
N21490G1X46.7500Y59.1560Z-0.3625F120.0
N21500G00X46.7500Y59.1560Z0.2000
N21510G1X46.7500Y59.1560Z-0.5438F120.0
N21520G00X46.7500Y59.1560Z0.2000
N21530G1X46.7500Y59.1560Z-0.7250F120.0
N21540G00X46.7500Y59.1560Z0.2000
N21550G1X46.7500Y59.1560Z-0.9063F120.0
N21560G00X46.7500Y59.1560Z0.2000
N21570G1X46.7500Y59.1560Z-1.0875F120.0
N21580G00X46.7500Y59.1560Z0.2000
N21590G1X46.7500Y59.1560Z-1.2688F120.0
N21600G00X46.7500Y59.1560Z0.2000
N21610G1X46.7500Y59.1560Z-1.4500F120.0
N21620G00X46.7500Y59.1560Z2.0000
N21630G00X46.7500Y53.1560Z2.0000
N21640G00X46.7500Y53.1560Z0.2000
N21650G1X46.7500Y53.1560Z-0.1813F120.0
N21660G00X46.7500Y53.1560Z0.2000
N21670G1X46.7500Y53.1560Z-0.3625F120.0
N21680G00X46.7500Y53.1560Z0.2000
N21690G1X46.7500Y53.1560Z-0.5438F120.0
N21700G00X46.7500Y53.1560Z0.2000
N21710G1X46.7500Y53.1560Z-0.7250F120.0
N21720G00X46.7500Y53.1560Z0.2000
N21730G1X46.7500Y53.1560Z-0.9063F120.0
N21740G00X46.7500Y53.1560Z0.2000
N21750G1X46.7500Y53.1560Z-1.0875F120.0
N21760G00X46.7500Y53.1560Z0.2000
N21770G1X46.7500Y53.1560Z-1.2688F120.0
N21780G00X46.7500Y53.1560Z0.2000
N21790G1X46.7500Y53.1560Z-1.4500F120.0
N21800G00X46.7500Y53.1560Z2.0000
N21810G00X46.7500Y47.1560Z2.0000
N21820G00X46.7500Y47.1560Z0.2000
N21830G1X46.7500Y47.1560Z-0.1813F120.0
N21840G00X46.7500Y47.1560Z0.2000
N21850G1X46.7500Y47.1560Z-0.3625F120.0
N21860G00X46.7500Y47.1560Z0.2000
N21870G1X46.7500Y47.1560Z-0.5438F120.0
N21880G00X46.7500Y47.1560Z0.2000
N21890G1X46.7500Y47.1560Z-0.7250F120.0
N21900G00X46.7500Y47.1560Z0.2000
N21910G1X46.7500Y47.1560Z-0.9063F120.0
N21920G00X46.7500Y47.1560Z0.2000
N21930G1X46.7500Y47.1560Z-1.0875F120.0
N21940G00X46.7500Y47.1560Z0.2000
N21950G1X46.7500Y47.1560Z-1.2688F120.0
N21960G00X46.7500Y47.1560Z0.2000
N21970G1X46.7500Y47.1560Z-1.4500F120.0
N21980G00X46.7500Y47.1560Z2.0000
N21990G00X46.7500Y41.1560Z2.0000
N22000G00X46.7500Y41.1560Z0.2000
N22010G1X46.7500Y41.1560Z-0.1813F120.0
N22020G00X46.7500Y41.1560Z0.2000
N22030G1X46.7500Y41.1560Z-0.3625F120.0
N22040G00X46.7500Y41.1560Z0.2000
N22050G1X46.7500Y41.1560Z-0.5438F120.0
N22060G00X46.7500Y41.1560Z0.2000
N22070G1X46.7500Y41.1560Z-0.7250F120.0
N22080G00X46.7500Y41.1560Z0.2000
N22090G1X46.7500Y41.1560Z-0.9063F120.0
N22100G00X46.7500Y41.1560Z0.2000
N22110G1X46.7500Y41.1560Z-1.0875F120.0
N22120G00X46.7500Y41.1560Z0.2000
N22130G1X46.7500Y41.1560Z-1.2688F120.0
N22140G00X46.7500Y41.1560Z0.2000
N22150G1X46.7500Y41.1560Z-1.4500F120.0
N22160G00X46.7500Y41.1560Z2.0000
N22170G00X46.7500Y35.1560Z2.0000
N22180G00X46.7500Y35.1560Z0.2000
N22190G1X46.7500Y35.1560Z-0.1813F120.0
N22200G00X46.7500Y35.1560Z0.2000
N22210G1X46.7500Y35.1560Z-0.3625F120.0
N22220G00X46.7500Y35.1560Z0.2000
N22230G1X46.7500Y35.1560Z-0.5438F120.0
N22240G00X46.7500Y35.1560Z0.2000
N22250G1X46.7500Y35.1560Z-0.7250F120.0
N22260G00X46.7500Y35.1560Z0.2000
N22270G1X46.7500Y35.1560Z-0.9063F120.0
N22280G00X46.7500Y35.1560Z0.2000
N22290G1X46.7500Y35.1560Z-1.0875F120.0
N22300G00X46.7500Y35.1560Z0.2000
N22310G1X46.7500Y35.1560Z-1.2688F120.0
N22320G00X46.7500Y35.1560Z0.2000
N22330G1X46.7500Y35.1560Z-1.4500F120.0
N22340G00X46.7500Y35.1560Z2.0000
N22350G00X46.7500Y29.1560Z2.0000
N22360G00X46.7500Y29.1560Z0.2000
N22370G1X46.7500Y29.1560Z-0.1813F120.0
N22380G00X46.7500Y29.1560Z0.2000
N22390G1X46.7500Y29.1560Z-0.3625F120.0
N22400G00X46.7500Y29.1560Z0.2000
N22410G1X46.7500Y29.1560Z-0.5438F120.0
N22420G00X46.7500Y29.1560Z0.2000
N22430G1X46.7500Y29.1560Z-0.7250F120.0
N22440G00X46.7500Y29.1560Z0.2000
N22450G1X46.7500Y29.1560Z-0.9063F120.0
N22460G00X46.7500Y29.1560Z0.2000
N22470G1X46.7500Y29.1560Z-1.0875F120.0
N22480G00X46.7500Y29.1560Z0.2000
N22490G1X46.7500Y29.1560Z-1.2688F120.0
N22500G00X46.7500Y29.1560Z0.2000
N22510G1X46.7500Y29.1560Z-1.4500F120.0
N22520G00X46.7500Y29.1560Z2.0000
N22530G00X46.7500Y23.1560Z2.0000
N22540G00X46.7500Y23.1560Z0.2000
N22550G1X46.7500Y23.1560Z-0.1813F120.0
N22560G00X46.7500Y23.1560Z0.2000
N22570G1X46.7500Y23.1560Z-0.3625F120.0
N22580G00X46.7500Y23.1560Z0.2000
N22590G1X46.7500Y23.1560Z-0.5438F120.0
N22600G00X46.7500Y23.1560Z0.2000
N22610G1X46.7500Y23.1560Z-0.7250F120.0
N22620G00X46.7500Y23.1560Z0.2000
N22630G1X46.7500Y23.1560Z-0.9063F120.0
N22640G00X46.7500Y23.1560Z0.2000
N22650G1X46.7500Y23.1560Z-1.0875F120.0
N22660G00X46.7500Y23.1560Z0.2000
N22670G1X46.7500Y23.1560Z-1.2688F120.0
N22680G00X46.7500Y23.1560Z0.2000
N22690G1X46.7500Y23.1560Z-1.4500F120.0
N22700G00X46.7500Y23.1560Z2.0000
N22710G00X46.7500Y17.1560Z2.0000
N22720G00X46.7500Y17.1560Z0.2000
N22730G1X46.7500Y17.1560Z-0.1813F120.0
N22740G00X46.7500Y17.1560Z0.2000
N22750G1X46.7500Y17.1560Z-0.3625F120.0
N22760G00X46.7500Y17.1560Z0.2000
N22770G1X46.7500Y17.1560Z-0.5438F120.0
N22780G00X46.7500Y17.1560Z0.2000
N22790G1X46.7500Y17.1560Z-0.7250F120.0
N22800G00X46.7500Y17.1560Z0.2000
N22810G1X46.7500Y17.1560Z-0.9063F120.0
N22820G00X46.7500Y17.1560Z0.2000
N22830G1X46.7500Y17.1560Z-1.0875F120.0
N22840G00X46.7500Y17.1560Z0.2000
N22850G1X46.7500Y17.1560Z-1.2688F120.0
N22860G00X46.7500Y17.1560Z0.2000
N22870G1X46.7500Y17.1560Z-1.4500F120.0
N22880G00X46.7500Y17.1560Z2.0000
N22890G00X46.7500Y11.1560Z2.0000
N22900G00X46.7500Y11.1560Z0.2000
N22910G1X46.7500Y11.1560Z-0.1813F120.0
N22920G00X46.7500Y11.1560Z0.2000
N22930G1X46.7500Y11.1560Z-0.3625F120.0
N22940G00X46.7500Y11.1560Z0.2000
N22950G1X46.7500Y11.1560Z-0.5438F120.0
N22960G00X46.7500Y11.1560Z0.2000
N22970G1X46.7500Y11.1560Z-0.7250F120.0
N22980G00X46.7500Y11.1560Z0.2000
N22990G1X46.7500Y11.1560Z-0.9063F120.0
N23000G00X46.7500Y11.1560Z0.2000
N23010G1X46.7500Y11.1560Z-1.0875F120.0
N23020G00X46.7500Y11.1560Z0.2000
N23030G1X46.7500Y11.1560Z-1.2688F120.0
N23040G00X46.7500Y11.1560Z0.2000
N23050G1X46.7500Y11.1560Z-1.4500F120.0
N23060G00X46.7500Y11.1560Z2.0000
N23070G00X46.7500Y5.1560Z2.0000
N23080G00X46.7500Y5.1560Z0.2000
N23090G1X46.7500Y5.1560Z-0.1813F120.0
N23100G00X46.7500Y5.1560Z0.2000
N23110G1X46.7500Y5.1560Z-0.3625F120.0
N23120G00X46.7500Y5.1560Z0.2000
N23130G1X46.7500Y5.1560Z-0.5438F120.0
N23140G00X46.7500Y5.1560Z0.2000
N23150G1X46.7500Y5.1560Z-0.7250F120.0
N23160G00X46.7500Y5.1560Z0.2000
N23170G1X46.7500Y5.1560Z-0.9063F120.0
N23180G00X46.7500Y5.1560Z0.2000
N23190G1X46.7500Y5.1560Z-1.0875F120.0
N23200G00X46.7500Y5.1560Z0.2000
N23210G1X46.7500Y5.1560Z-1.2688F120.0
N23220G00X46.7500Y5.1560Z0.2000
N23230G1X46.7500Y5.1560Z-1.4500F120.0
N23240G00X46.7500Y5.1560Z2.0000
N23250G00Z2.0000
N23260G00X0.0000Y0.0000
N23270M09
N23280M30
%
